; HEADER_BLOCK_START
; generated by OrcaSlicer 1.8.0-beta2 on 2024-03-09 at 21:04:02
; total layer number: 192
; HEADER_BLOCK_END

; THUMBNAIL_BLOCK_START
; THUMBNAIL_BLOCK_END

; external perimeters extrusion width = 0.50mm
; perimeters extrusion width = 0.50mm
; infill extrusion width = 0.50mm
; solid infill extrusion width = 0.50mm
; top infill extrusion width = 0.50mm
; first layer extrusion width = 0.50mm

; EXECUTABLE_BLOCK_START
EXCLUDE_OBJECT_DEFINE NAME=3DBenchy.stl_id_0_copy_0 CENTER=150,200 POLYGON=[[120,190.816],[120.002,190.755],[120.007,190.699],[120.012,190.646],[120.014,190.63],[120.02,190.583],[120.028,190.525],[120.046,190.436],[120.058,190.379],[120.074,190.322],[120.081,190.296],[120.097,190.239],[120.126,190.155],[120.14,190.118],[120.162,190.064],[120.169,190.047],[120.186,190.01],[120.209,189.958],[120.23,189.916],[120.264,189.854],[120.278,189.827],[120.291,189.806],[120.34,189.727],[120.357,189.7],[120.371,189.679],[120.405,189.631],[120.44,189.584],[120.484,189.531],[120.508,189.501],[120.539,189.466],[120.578,189.423],[120.592,189.408],[120.6,189.4],[120.641,189.359],[120.661,189.34],[120.704,189.3],[120.737,189.271],[120.783,189.234],[120.793,189.225],[120.828,189.197],[120.887,189.154],[120.935,189.121],[120.979,189.092],[121.044,189.052],[121.071,189.036],[121.124,189.008],[121.148,188.995],[121.175,188.981],[121.197,188.97],[121.253,188.944],[121.312,188.919],[121.361,188.899],[121.417,188.879],[121.429,188.875],[121.472,188.861],[121.485,188.857],[121.541,188.84],[121.548,188.838],[121.584,188.828],[121.597,188.825],[121.625,188.818],[121.64,188.814],[121.71,188.799],[121.739,188.794],[121.769,188.789],[121.798,188.784],[149.812,184.886],[150.055,184.853],[150.299,184.821],[150.543,184.791],[150.882,184.752],[151.105,184.728],[151.35,184.702],[151.596,184.678],[151.842,184.656],[152.087,184.635],[152.253,184.622],[152.333,184.616],[152.523,184.602],[152.579,184.598],[152.826,184.581],[152.987,184.571],[153.071,184.566],[153.232,184.557],[153.489,184.544],[153.597,184.539],[153.619,184.538],[153.755,184.532],[153.906,184.526],[154.05,184.521],[154.167,184.517],[154.233,184.515],[154.342,184.512],[154.46,184.509],[154.548,184.507],[154.689,184.504],[154.881,184.501],[155.062,184.499],[155.18,184.498],[155.578,184.498],[155.934,184.5],[156.369,184.508],[156.45,184.51],[156.805,184.52],[156.912,184.524],[157.24,184.537],[157.677,184.558],[158.009,184.578],[158.092,184.583],[158.202,184.59],[158.375,184.602],[158.495,184.611],[158.641,184.622],[158.728,184.629],[158.909,184.644],[159.04,184.655],[159.832,184.78],[159.841,184.782],[160.269,184.888],[160.377,184.915],[160.595,184.97],[160.737,185.007],[160.813,185.027],[160.967,185.068],[161.248,185.145],[161.424,185.195],[161.68,185.27],[161.896,185.334],[162.111,185.4],[162.332,185.47],[162.558,185.543],[162.752,185.607],[163.008,185.694],[163.178,185.753],[163.232,185.772],[163.4,185.832],[163.601,185.905],[163.822,185.987],[164.033,186.067],[164.233,186.145],[164.344,186.188],[164.443,186.228],[164.453,186.232],[164.662,186.316],[164.871,186.402],[164.927,186.425],[165.134,186.513],[165.341,186.603],[165.547,186.693],[165.957,186.879],[166.16,186.974],[166.363,187.07],[166.565,187.168],[166.766,187.267],[166.967,187.367],[167.166,187.469],[167.366,187.572],[167.563,187.677],[167.762,187.783],[167.957,187.89],[168.153,187.999],[168.348,188.11],[168.543,188.221],[168.737,188.334],[168.93,188.449],[169.123,188.565],[169.314,188.683],[169.505,188.801],[169.696,188.922],[169.885,189.043],[170.075,189.167],[170.262,189.291],[170.451,189.417],[170.637,189.544],[170.824,189.673],[171.008,189.803],[171.193,189.934],[171.376,190.067],[171.56,190.201],[171.742,190.337],[171.923,190.474],[172.104,190.612],[172.284,190.752],[172.463,190.893],[172.642,191.036],[172.82,191.18],[172.998,191.325],[173.173,191.472],[173.523,191.77],[173.697,191.921],[173.87,192.074],[174.042,192.228],[174.214,192.384],[174.328,192.489],[174.498,192.645],[174.665,192.803],[174.832,192.962],[174.996,193.122],[175.161,193.283],[175.325,193.445],[175.486,193.609],[175.647,193.773],[175.807,193.939],[175.966,194.106],[176.124,194.274],[176.282,194.443],[176.438,194.614],[176.592,194.785],[176.745,194.958],[176.898,195.132],[177.05,195.306],[177.201,195.483],[177.349,195.66],[177.498,195.838],[177.645,196.017],[177.791,196.198],[177.936,196.38],[178.081,196.563],[178.223,196.747],[178.364,196.932],[178.505,197.118],[178.645,197.305],[178.784,197.493],[178.921,197.683],[179.056,197.874],[179.192,198.065],[179.326,198.258],[179.458,198.452],[179.589,198.647],[179.618,198.692],[179.651,198.745],[179.682,198.798],[179.713,198.852],[179.742,198.907],[179.769,198.962],[179.819,199.076],[179.834,199.117],[179.856,199.175],[179.876,199.233],[179.895,199.292],[179.912,199.351],[179.929,199.413],[179.943,199.47],[179.954,199.53],[179.966,199.593],[179.975,199.652],[179.984,199.713],[179.991,199.774],[179.995,199.836],[179.998,199.905],[180,199.966],[180,200.027],[179.999,200.088],[179.996,200.149],[179.992,200.209],[179.986,200.27],[179.977,200.331],[179.968,200.391],[179.958,200.449],[179.945,200.512],[179.932,200.569],[179.916,200.632],[179.901,200.686],[179.883,200.745],[179.863,200.803],[179.842,200.861],[179.82,200.918],[179.797,200.974],[179.771,201.03],[179.744,201.086],[179.716,201.14],[179.686,201.194],[179.655,201.248],[179.623,201.301],[179.589,201.353],[179.472,201.527],[179.339,201.721],[179.206,201.914],[179.071,202.106],[178.936,202.297],[178.797,202.487],[178.659,202.676],[178.52,202.864],[178.38,203.05],[178.237,203.236],[178.095,203.42],[177.951,203.604],[177.659,203.968],[177.51,204.148],[177.361,204.328],[177.21,204.506],[177.06,204.683],[176.907,204.86],[176.752,205.035],[176.597,205.209],[176.482,205.337],[176.326,205.509],[176.167,205.68],[176.008,205.85],[175.848,206.018],[175.688,206.186],[175.526,206.352],[175.2,206.68],[175.034,206.841],[174.869,207.002],[174.703,207.161],[174.535,207.319],[174.367,207.475],[174.199,207.63],[174.028,207.784],[173.857,207.937],[173.686,208.089],[173.512,208.239],[173.338,208.388],[173.164,208.536],[172.987,208.682],[172.811,208.827],[172.632,208.971],[172.454,209.114],[172.275,209.256],[172.093,209.396],[171.911,209.535],[171.728,209.673],[171.544,209.81],[171.359,209.945],[171.173,210.08],[170.799,210.344],[170.611,210.474],[170.421,210.603],[170.23,210.731],[170.039,210.857],[169.846,210.982],[169.653,211.106],[169.458,211.228],[169.263,211.349],[169.067,211.469],[168.869,211.587],[168.672,211.704],[168.472,211.819],[168.272,211.934],[168.072,212.046],[167.87,212.158],[167.595,212.307],[167.395,212.412],[167.196,212.516],[166.996,212.618],[166.796,212.719],[166.595,212.818],[166.392,212.916],[166.19,213.012],[165.987,213.107],[165.783,213.2],[165.579,213.292],[165.374,213.383],[165.169,213.472],[164.963,213.559],[164.756,213.645],[164.666,213.682],[164.549,213.73],[164.341,213.813],[164.122,213.898],[164.003,213.944],[163.704,214.057],[163.493,214.134],[163.293,214.206],[163.071,214.284],[162.884,214.348],[162.869,214.353],[162.656,214.424],[162.443,214.494],[162.207,214.57],[162.005,214.632],[161.979,214.64],[161.751,214.709],[161.523,214.776],[161.295,214.841],[161.142,214.884],[161.065,214.905],[160.924,214.943],[160.707,215.001],[160.606,215.027],[160.488,215.057],[160.269,215.112],[159.844,215.218],[159.316,215.319],[159.306,215.32],[159.05,215.344],[159.003,215.348],[158.81,215.364],[158.725,215.371],[158.561,215.384],[158.481,215.39],[158.134,215.414],[157.688,215.441],[157.649,215.443],[157.264,215.462],[157.126,215.468],[156.778,215.481],[156.564,215.487],[156.344,215.493],[155.907,215.5],[155.522,215.502],[155.177,215.502],[154.877,215.499],[154.821,215.498],[154.599,215.494],[154.457,215.491],[154.338,215.488],[154.166,215.483],[154.076,215.48],[153.93,215.475],[153.752,215.468],[153.728,215.467],[153.57,215.46],[153.463,215.455],[153.332,215.448],[153.133,215.437],[152.889,215.423],[152.644,215.407],[152.629,215.406],[152.342,215.385],[152.096,215.366],[151.849,215.345],[151.667,215.328],[151.603,215.322],[151.423,215.305],[151.179,215.28],[151.111,215.273],[150.935,215.254],[150.619,215.218],[150.373,215.188],[150.204,215.166],[149.882,215.124],[121.828,211.22],[121.792,211.215],[121.743,211.207],[121.686,211.196],[121.653,211.189],[121.597,211.175],[121.584,211.172],[121.548,211.162],[121.536,211.159],[121.48,211.142],[121.429,211.125],[121.417,211.121],[121.361,211.101],[121.312,211.081],[121.253,211.056],[121.197,211.03],[121.155,211.009],[121.105,210.982],[121.086,210.972],[121.044,210.948],[120.993,210.917],[120.979,210.908],[120.944,210.885],[120.935,210.879],[120.887,210.846],[120.847,210.817],[120.84,210.811],[120.793,210.775],[120.756,210.744],[120.749,210.738],[120.704,210.7],[120.661,210.66],[120.64,210.64],[120.592,210.592],[120.557,210.555],[120.539,210.534],[120.519,210.511],[120.48,210.466],[120.444,210.42],[120.431,210.402],[120.41,210.374],[120.407,210.37],[120.373,210.322],[120.357,210.3],[120.342,210.278],[120.308,210.224],[120.278,210.173],[120.25,210.122],[120.23,210.084],[120.218,210.06],[120.195,210.012],[120.169,209.954],[120.148,209.903],[120.127,209.849],[120.109,209.793],[120.107,209.79],[120.09,209.738],[120.075,209.682],[120.06,209.625],[120.046,209.564],[120.035,209.507],[120.026,209.454],[120.025,209.448],[120.016,209.396],[120.012,209.353],[120.008,209.325],[120.002,209.245],[120,209.208],[120,209.179],[120,190.816]]
M73 P0 R21
;TYPE:Custom
M190 S70
M109 S235
PRINT_START EXTRUDER=235 BED=70
; You can use following code instead if your PRINT_START macro support Chamber and print area bedmesh
; PRINT_START EXTRUDER=235 BED=70 Chamber=0 PRINT_MIN=124.128,191.902 PRINT_MAX=163.118,208.097
G90
G21
M83 ; use relative distances for extrusion
; filament start gcode
M106 P3 S180
;Prevent PLA from jamming

SET_PRESSURE_ADVANCE ADVANCE=0.04; Override pressure advance value
M106 S0
;LAYER_CHANGE
;Z:0.2
;HEIGHT:0.2
;BEFORE_LAYER_CHANGE
;0.2
G92 E0

G1 E-.8 F1800
;AFTER_LAYER_CHANGE
;0.2
;_SET_FAN_SPEED_CHANGING_LAYER
SET_VELOCITY_LIMIT ACCEL=500 ACCEL_TO_DECEL=250
; printing object 3DBenchy.stl id:0 copy 0
EXCLUDE_OBJECT_START NAME=3DBenchy.stl_id_0_copy_0
G1 X150.099 Y202.242 F30000
G1 Z.2
G1 E.8 F1800
;TYPE:Outer wall
;WIDTH:0.5
G1 F3000
G1 X150.006 Y202.345 E.00504
G1 X149.954 Y202.449 E.00419
G1 X149.967 Y202.596 E.00532
G1 X149.731 Y203.033 E.01792
G1 X149.544 Y203.262 E.0107
G1 X149.246 Y203.428 E.01233
G1 X148.965 Y203.434 E.01013
G1 X148.718 Y203.353 E.00937
G1 X148.558 Y203.229 E.00732
G1 X148.486 Y203.125 E.00456
G1 X148.382 Y202.881 E.00958
G1 X148.346 Y202.635 E.00897
G1 X148.39 Y202.413 E.00819
G1 X148.546 Y201.941 E.01795
G1 X148.858 Y201.244 E.02758
G1 X149.184 Y200.774 E.02063
G1 X148.956 Y200.415 E.01535
G1 X148.384 Y199.383 E.0426
G1 X148.288 Y199.098 E.01086
G1 X148.272 Y198.759 E.01226
G1 X148.368 Y198.491 E.01027
G1 X148.608 Y198.247 E.01236
G1 X148.783 Y198.157 E.00711
G1 X148.975 Y198.1 E.00723
G1 X149.247 Y198.099 E.00981
G1 X149.43 Y198.168 E.00705
G1 X149.692 Y198.36 E.01174
G1 X149.824 Y198.542 E.00812
G1 X149.877 Y198.731 E.00709
G1 X150.006 Y198.974 E.00994
G1 X150.183 Y199.166 E.00943
G1 X150.35 Y198.976 E.00914
G1 X150.462 Y198.772 E.00839
G1 X150.57 Y198.475 E.01143
G1 X150.796 Y198.271 E.01099
G1 X151.079 Y198.114 E.01169
G1 X151.306 Y198.104 E.00819
G1 X151.597 Y198.221 E.01134
G1 X151.746 Y198.337 E.0068
G1 X151.853 Y198.474 E.0063
G1 X151.943 Y198.792 E.01192
G1 X151.946 Y199.023 E.00835
G1 X151.911 Y199.252 E.00836
G1 X151.837 Y199.455 E.00779
G1 X151.628 Y199.868 E.01671
G1 X151.259 Y200.483 E.02592
G1 X151.2 Y200.623 E.00545
G1 X151.184 Y200.712 E.00327
G1 X151.221 Y200.857 E.00541
G1 X151.987 Y202.151 E.0543
G1 X152.078 Y202.432 E.01067
G1 X152.094 Y202.726 E.0106
G1 X152.029 Y203.002 E.01026
G1 X151.927 Y203.176 E.00727
G1 X151.801 Y203.306 E.00654
G1 X151.645 Y203.403 E.00665
G1 X151.387 Y203.484 E.00975
G1 X151.091 Y203.488 E.01071
G1 X150.833 Y203.39 E.00997
G1 X150.688 Y203.276 E.00663
G1 X150.529 Y203.074 E.0093
G1 X150.441 Y202.867 E.00812
G1 X150.366 Y202.591 E.01035
G1 X150.254 Y202.396 E.00811
G1 X150.128 Y202.27 E.00643
G1 E-.56 F1800
;WIPE_START
G1 F3000
G1 X150.006 Y202.345 E-.03442
G1 X149.954 Y202.449 E-.02787
G1 X149.967 Y202.596 E-.03535
G1 X149.731 Y203.033 E-.1191
G1 X149.67 Y203.108 E-.02326
;WIPE_END
G1 E0 F1800
G1 X147.852 Y201.554 F30000
G1 E.8 F1800
G1 F3000
G1 X147.963 Y201.798 E.00967
G1 X148.02 Y202.42 E.02257
G1 X147.962 Y202.741 E.01177
G1 X147.889 Y202.913 E.00676
G1 X147.834 Y203.119 E.00767
G1 X147.69 Y203.342 E.0096
G1 X147.506 Y203.511 E.00901
G1 X147.294 Y203.646 E.00908
G1 X147.046 Y203.732 E.0095
G1 X146.682 Y203.761 E.01317
G1 X146.43 Y203.722 E.00923
G1 X146.194 Y203.636 E.00906
G1 X145.974 Y203.507 E.00922
G1 X145.791 Y203.329 E.0092
G1 X145.65 Y203.126 E.00894
G1 X145.547 Y202.883 E.00951
G1 X145.518 Y202.36 E.01891
G1 X145.536 Y202.144 E.00785
G1 X145.595 Y201.931 E.00797
G1 X145.689 Y201.731 E.00797
G1 X145.818 Y201.551 E.00802
G1 X145.979 Y201.393 E.00814
G1 X146.214 Y201.247 E.01
G1 X146.39 Y201.106 E.00813
G1 X146.648 Y201.021 E.00982
G1 X146.753 Y201.014 E.00379
G1 X147.017 Y201.011 E.00955
G1 X147.273 Y201.07 E.00946
G1 X147.505 Y201.191 E.00946
G1 X147.697 Y201.355 E.0091
G1 X147.827 Y201.522 E.00767
G1 E-.56 F1800
;WIPE_START
G1 F3000
G1 X147.963 Y201.798 E-.07361
G1 X148.02 Y202.42 E-.15002
G1 X148.007 Y202.487 E-.01637
;WIPE_END
G1 X140.144 Y199.142 F30000
G1 E.8 F1800
;TYPE:Inner wall
G1 F3000
G1 X140.276 Y199.027 E.00633
G1 X140.275 Y199.948 E.03326
G1 X139.966 Y199.639 E.01578
G1 X139.857 Y199.482 E.0069
G1 X139.949 Y199.311 E.00698
G1 X140.113 Y199.168 E.00787
G1 E-.56 F1800
;WIPE_START
G1 F3000
G1 X140.276 Y199.027 E-.05169
G1 X140.275 Y199.812 E-.18831
;WIPE_END
G1 X140.799 Y197.055 F30000
G1 E.8 F1800
;TYPE:Outer wall
G1 F3000
G1 X140.915 Y196.909 E.00671
G1 X141.062 Y196.796 E.00668
G1 X141.39 Y196.669 E.0127
G1 X141.72 Y196.634 E.012
G1 X142.976 Y196.65 E.04535
G1 X143.523 Y196.688 E.01979
G1 X144.09 Y196.791 E.02082
G1 X144.531 Y196.95 E.01693
G1 X144.928 Y197.202 E.01697
G1 X145.245 Y197.505 E.01582
G1 X145.545 Y197.923 E.01861
G1 X145.775 Y198.41 E.01943
G1 X145.899 Y198.822 E.01554
G1 X145.959 Y199.123 E.01107
G1 X146.011 Y199.631 E.01844
G1 X145.998 Y200.179 E.01979
G1 X145.933 Y200.547 E.01349
G1 X145.877 Y200.732 E.00698
G1 X145.754 Y201.01 E.01098
G1 X145.593 Y201.525 E.01949
G1 X145.476 Y201.778 E.01006
G1 X145.274 Y202.103 E.01381
G1 X145.059 Y202.359 E.01206
G1 X144.93 Y202.56 E.00864
G1 X144.743 Y202.765 E.01005
G1 X144.428 Y202.983 E.01381
G1 X144.193 Y203.091 E.00934
G1 X143.696 Y203.216 E.0185
G1 X143.385 Y203.257 E.01134
G1 X142.853 Y203.284 E.01923
G1 X142.041 Y203.276 E.02931
G1 X141.509 Y203.318 E.01928
G1 X141.335 Y203.295 E.00634
G1 X141.149 Y203.225 E.00716
G1 X140.953 Y203.062 E.00921
G1 X140.817 Y202.838 E.00945
G1 X140.739 Y202.572 E.01003
G1 X140.712 Y202.269 E.01099
G1 X140.729 Y201.663 E.02189
G1 X140.734 Y198.054 E.13029
G1 X140.692 Y197.426 E.02272
G1 X140.718 Y197.247 E.00655
G1 X140.784 Y197.091 E.0061
G1 E-.56 F1800
;WIPE_START
G1 F3000
G1 X140.915 Y196.909 E-.0539
G1 X141.062 Y196.796 E-.04439
G1 X141.39 Y196.669 E-.08439
G1 X141.627 Y196.644 E-.05731
;WIPE_END
G1 X137.929 Y198.415 F30000
G1 E.8 F1800
G1 F3000
G1 X137.895 Y198.263 E.00561
G1 X137.823 Y198.194 E.0036
G1 X137.683 Y198.174 E.00511
G1 X137.508 Y198.209 E.00643
G1 X136.855 Y198.508 E.02594
G1 X136.643 Y198.558 E.00788
G1 X136.452 Y198.532 E.00694
G1 X136.253 Y198.422 E.00822
G1 X136.067 Y198.235 E.00951
G1 X135.96 Y198.061 E.00741
G1 X135.91 Y197.864 E.00733
G1 X135.907 Y197.575 E.01042
G1 X135.999 Y197.224 E.01311
G1 X136.126 Y197.049 E.00782
G1 X136.354 Y196.856 E.01078
G1 X136.65 Y196.68 E.01242
G1 X136.989 Y196.56 E.013
G1 X137.361 Y196.493 E.01365
G1 X137.61 Y196.473 E.00902
G1 X137.998 Y196.476 E.01402
G1 X138.298 Y196.509 E.01089
G1 X138.649 Y196.584 E.01296
G1 X138.873 Y196.664 E.00859
G1 X139.167 Y196.822 E.01205
G1 X139.345 Y196.959 E.00812
