; HEADER_BLOCK_START
; generated by OrcaSlicer 1.8.0-beta2 on 2024-03-10 at 11:50:00
; total layer number: 1
; HEADER_BLOCK_END

; THUMBNAIL_BLOCK_START
; THUMBNAIL_BLOCK_END

; external perimeters extrusion width = 0.42mm
; perimeters extrusion width = 0.45mm
; infill extrusion width = 0.45mm
; solid infill extrusion width = 0.42mm
; top infill extrusion width = 0.45mm
; first layer extrusion width = 0.50mm

; external perimeters extrusion width = 0.42mm
; perimeters extrusion width = 0.45mm
; infill extrusion width = 0.45mm
; solid infill extrusion width = 0.42mm
; top infill extrusion width = 0.45mm
; first layer extrusion width = 0.50mm

; external perimeters extrusion width = 0.42mm
; perimeters extrusion width = 0.45mm
; infill extrusion width = 0.45mm
; solid infill extrusion width = 0.42mm
; top infill extrusion width = 0.45mm
; first layer extrusion width = 0.50mm

; external perimeters extrusion width = 0.42mm
; perimeters extrusion width = 0.45mm
; infill extrusion width = 0.45mm
; solid infill extrusion width = 0.42mm
; top infill extrusion width = 0.45mm
; first layer extrusion width = 0.50mm

; external perimeters extrusion width = 0.42mm
; perimeters extrusion width = 0.45mm
; infill extrusion width = 0.45mm
; solid infill extrusion width = 0.42mm
; top infill extrusion width = 0.45mm
; first layer extrusion width = 0.50mm

; external perimeters extrusion width = 0.42mm
; perimeters extrusion width = 0.45mm
; infill extrusion width = 0.45mm
; solid infill extrusion width = 0.42mm
; top infill extrusion width = 0.45mm
; first layer extrusion width = 0.50mm

; external perimeters extrusion width = 0.42mm
; perimeters extrusion width = 0.45mm
; infill extrusion width = 0.45mm
; solid infill extrusion width = 0.42mm
; top infill extrusion width = 0.45mm
; first layer extrusion width = 0.50mm

; external perimeters extrusion width = 0.42mm
; perimeters extrusion width = 0.45mm
; infill extrusion width = 0.45mm
; solid infill extrusion width = 0.42mm
; top infill extrusion width = 0.45mm
; first layer extrusion width = 0.50mm

; external perimeters extrusion width = 0.42mm
; perimeters extrusion width = 0.45mm
; infill extrusion width = 0.45mm
; solid infill extrusion width = 0.42mm
; top infill extrusion width = 0.45mm
; first layer extrusion width = 0.50mm

; EXECUTABLE_BLOCK_START
EXCLUDE_OBJECT_DEFINE NAME=Cube_id_0_copy_0 CENTER=150,200 POLYGON=[[130,180],[170,180],[170,220],[130,220],[130,180]]
EXCLUDE_OBJECT_DEFINE NAME=Cube_id_1_copy_0 CENTER=269.062,368.593 POLYGON=[[249.062,348.593],[289.062,348.593],[289.062,388.593],[249.062,388.593],[249.062,348.593]]
EXCLUDE_OBJECT_DEFINE NAME=Cube_id_2_copy_0 CENTER=268.833,30.9312 POLYGON=[[248.833,10.9312],[288.833,10.9312],[288.833,50.9312],[248.833,50.9312],[248.833,10.9312]]
EXCLUDE_OBJECT_DEFINE NAME=Cube_id_3_copy_0 CENTER=30.6392,369.03 POLYGON=[[10.6392,349.03],[50.6392,349.03],[50.6392,389.03],[10.6392,389.03],[10.6392,349.03]]
EXCLUDE_OBJECT_DEFINE NAME=Cube_id_4_copy_0 CENTER=29.6522,199.137 POLYGON=[[9.65218,179.137],[49.6522,179.137],[49.6522,219.137],[9.65218,219.137],[9.65218,179.137]]
EXCLUDE_OBJECT_DEFINE NAME=Cube_id_5_copy_0 CENTER=270.34,199.462 POLYGON=[[250.34,179.462],[290.34,179.462],[290.34,219.462],[250.34,219.462],[250.34,179.462]]
EXCLUDE_OBJECT_DEFINE NAME=Cube_id_6_copy_0 CENTER=149.179,30.102 POLYGON=[[129.179,10.102],[169.179,10.102],[169.179,50.102],[129.179,50.102],[129.179,10.102]]
EXCLUDE_OBJECT_DEFINE NAME=Cube_id_7_copy_0 CENTER=149.34,368.813 POLYGON=[[129.34,348.813],[169.34,348.813],[169.34,388.813],[129.34,388.813],[129.34,348.813]]
EXCLUDE_OBJECT_DEFINE NAME=Cube_id_8_copy_0 CENTER=29.9832,29.8751 POLYGON=[[9.98318,9.87511],[49.9832,9.87511],[49.9832,49.8751],[9.98318,49.8751],[9.98318,9.87511]]
M73 P0 R8
;TYPE:Custom
M190 S70
M109 S235
PRINT_START EXTRUDER=235 BED=70
; You can use following code instead if your PRINT_START macro support Chamber and print area bedmesh
; PRINT_START EXTRUDER=235 BED=70 Chamber=0 PRINT_MIN=9.65218,9.87511 PRINT_MAX=290.34,389.03
G90
G21
M83 ; use relative distances for extrusion
; filament start gcode
M106 P3 S180
;Prevent PLA from jamming

SET_PRESSURE_ADVANCE ADVANCE=0.04; Override pressure advance value
M106 S0
;LAYER_CHANGE
;Z:0.2
;HEIGHT:0.2
;BEFORE_LAYER_CHANGE
;0.2
G92 E0

G1 E-.8 F1800
;AFTER_LAYER_CHANGE
;0.2
;_SET_FAN_SPEED_CHANGING_LAYER
SET_VELOCITY_LIMIT ACCEL=500 ACCEL_TO_DECEL=250
; printing object Cube id:1 copy 0
EXCLUDE_OBJECT_START NAME=Cube_id_1_copy_0
G1 X288.662 Y388.193 F30000
G1 Z.2
G1 E.8 F1800
;TYPE:Outer wall
;WIDTH:0.5
G1 F3000
G1 X249.462 Y388.193 E1.41536
G1 X249.462 Y348.993 E1.41536
G1 X288.662 Y348.993 E1.41536
G1 X288.662 Y388.153 E1.41391
M73 P1 R8
G1 E-.56 F1800
;WIPE_START
G1 F3000
G1 X287.662 Y388.154 E-.24
;WIPE_END
G1 X288.479 Y350.102 F30000
G1 E.8 F1800
;TYPE:Bottom surface
;WIDTH:0.501125
G1 F6300
G1 X287.759 Y349.382 E.03689
G1 X287.111 Y349.382 E.02345
G1 X288.274 Y350.545 E.05953
G1 X288.274 Y351.193 E.02345
G1 X286.463 Y349.382 E.0927
G1 X285.815 Y349.382 E.02345
G1 X288.274 Y351.841 E.12587
G1 X288.274 Y352.489 E.02345
G1 X285.167 Y349.382 E.15904
G1 X284.519 Y349.382 E.02345
G1 X288.274 Y353.137 E.19221
G1 X288.274 Y353.785 E.02345
G1 X283.871 Y349.382 E.22538
G1 X283.223 Y349.382 E.02345
G1 X288.274 Y354.433 E.25855
G1 X288.274 Y355.081 E.02345
G1 X282.575 Y349.382 E.29172
G1 X281.927 Y349.382 E.02345
G1 X288.274 Y355.729 E.32489
G1 X288.274 Y356.377 E.02345
G1 X281.279 Y349.382 E.35805
G1 X280.631 Y349.382 E.02345
G1 X288.274 Y357.025 E.39122
G1 X288.274 Y357.673 E.02345
G1 X279.983 Y349.382 E.42439
G1 X279.335 Y349.382 E.02345
G1 X288.274 Y358.321 E.45756
G1 X288.274 Y358.969 E.02345
G1 X278.687 Y349.382 E.49073
G1 X278.039 Y349.382 E.02345
G1 X288.274 Y359.617 E.5239
G1 X288.274 Y360.265 E.02345
G1 X277.391 Y349.382 E.55707
G1 X276.743 Y349.382 E.02345
G1 X288.274 Y360.913 E.59024
G1 X288.274 Y361.561 E.02345
G1 X276.095 Y349.382 E.62341
M73 P2 R8
G1 X275.447 Y349.382 E.02345
G1 X288.274 Y362.209 E.65658
G1 X288.274 Y362.857 E.02345
G1 X274.799 Y349.382 E.68975
G1 X274.151 Y349.382 E.02345
G1 X288.274 Y363.505 E.72292
G1 X288.274 Y364.153 E.02345
G1 X273.503 Y349.382 E.75609
G1 X272.855 Y349.382 E.02345
G1 X288.274 Y364.801 E.78926
G1 X288.274 Y365.449 E.02345
G1 X272.207 Y349.382 E.82243
G1 X271.559 Y349.382 E.02345
G1 X288.274 Y366.097 E.8556
G1 X288.274 Y366.745 E.02345
G1 X270.911 Y349.382 E.88876
G1 X270.263 Y349.382 E.02345
G1 X288.274 Y367.393 E.92193
G1 X288.274 Y368.041 E.02345
G1 X269.615 Y349.382 E.9551
G1 X268.967 Y349.382 E.02345
G1 X288.274 Y368.689 E.98827
G1 X288.274 Y369.337 E.02345
G1 X268.319 Y349.382 E1.02144
M73 P3 R8
G1 X267.671 Y349.382 E.02345
G1 X288.274 Y369.985 E1.05461
G1 X288.274 Y370.633 E.02345
G1 X267.023 Y349.382 E1.08778
G1 X266.375 Y349.382 E.02345
G1 X288.274 Y371.281 E1.12095
G1 X288.274 Y371.929 E.02345
G1 X265.727 Y349.382 E1.15412
G1 X265.079 Y349.382 E.02345
G1 X288.274 Y372.577 E1.18729
G1 X288.274 Y373.225 E.02345
G1 X264.431 Y349.382 E1.22046
G1 X263.783 Y349.382 E.02345
G1 X288.274 Y373.873 E1.25363
G1 X288.274 Y374.521 E.02345
G1 X263.135 Y349.382 E1.2868
G1 X262.487 Y349.382 E.02345
G1 X288.274 Y375.169 E1.31997
G1 X288.274 Y375.817 E.02345
G1 X261.839 Y349.382 E1.35314
M73 P4 R8
G1 X261.191 Y349.382 E.02345
G1 X288.274 Y376.465 E1.38631
G1 X288.274 Y377.113 E.02345
G1 X260.543 Y349.382 E1.41947
G1 X259.895 Y349.382 E.02345
G1 X288.274 Y377.761 E1.45264
G1 X288.274 Y378.409 E.02345
G1 X259.247 Y349.382 E1.48581
G1 X258.599 Y349.382 E.02345
G1 X288.274 Y379.057 E1.51898
G1 X288.274 Y379.705 E.02345
G1 X257.951 Y349.382 E1.55215
G1 X257.303 Y349.382 E.02345
G1 X288.274 Y380.353 E1.58532
G1 X288.274 Y381.001 E.02345
G1 X256.655 Y349.382 E1.61849
G1 X256.007 Y349.382 E.02345
G1 X288.274 Y381.649 E1.65166
M73 P5 R8
G1 X288.274 Y382.297 E.02345
G1 X255.359 Y349.382 E1.68483
G1 X254.711 Y349.382 E.02345
G1 X288.274 Y382.945 E1.718
G1 X288.274 Y383.593 E.02345
G1 X254.063 Y349.382 E1.75117
G1 X253.415 Y349.382 E.02345
G1 X288.274 Y384.241 E1.78434
G1 X288.274 Y384.889 E.02345
G1 X252.767 Y349.382 E1.81751
G1 X252.119 Y349.382 E.02345
G1 X288.274 Y385.537 E1.85068
G1 X288.274 Y386.185 E.02345
G1 X251.471 Y349.382 E1.88385
G1 X250.823 Y349.382 E.02345
G1 X288.274 Y386.833 E1.91702
M73 P6 R8
G1 X288.274 Y387.481 E.02345
G1 X250.175 Y349.382 E1.95018
G1 X249.851 Y349.382 E.01173
G1 X249.851 Y349.706 E.01173
G1 X287.95 Y387.805 E1.95018
G1 X287.302 Y387.805 E.02345
G1 X249.851 Y350.354 E1.91701
G1 X249.851 Y351.002 E.02345
G1 X286.654 Y387.805 E1.88384
G1 X286.006 Y387.805 E.02345
G1 X249.851 Y351.65 E1.85068
G1 X249.851 Y352.298 E.02345
G1 X285.358 Y387.805 E1.81751
G1 X284.71 Y387.805 E.02345
G1 X249.851 Y352.946 E1.78434
G1 X249.851 Y353.594 E.02345
M73 P7 R8
G1 X284.062 Y387.805 E1.75117
G1 X283.414 Y387.805 E.02345
G1 X249.851 Y354.242 E1.718
G1 X249.851 Y354.89 E.02345
G1 X282.766 Y387.805 E1.68483
G1 X282.118 Y387.805 E.02345
G1 X249.851 Y355.538 E1.65166
G1 X249.851 Y356.186 E.02345
G1 X281.47 Y387.805 E1.61849
G1 X280.822 Y387.805 E.02345
G1 X249.851 Y356.834 E1.58532
G1 X249.851 Y357.482 E.02345
G1 X280.174 Y387.805 E1.55215
G1 X279.526 Y387.805 E.02345
G1 X249.851 Y358.13 E1.51898
G1 X249.851 Y358.778 E.02345
G1 X278.878 Y387.805 E1.48581
M73 P8 R8
G1 X278.23 Y387.805 E.02345
G1 X249.851 Y359.426 E1.45264
G1 X249.851 Y360.074 E.02345
G1 X277.582 Y387.805 E1.41947
G1 X276.934 Y387.805 E.02345
G1 X249.851 Y360.722 E1.3863
G1 X249.851 Y361.37 E.02345
G1 X276.286 Y387.805 E1.35314
G1 X275.638 Y387.805 E.02345
G1 X249.851 Y362.018 E1.31997
G1 X249.851 Y362.666 E.02345
G1 X274.99 Y387.805 E1.2868
G1 X274.342 Y387.805 E.02345
G1 X249.851 Y363.314 E1.25363
G1 X249.851 Y363.962 E.02345
G1 X273.694 Y387.805 E1.22046
G1 X273.046 Y387.805 E.02345
G1 X249.851 Y364.61 E1.18729
M73 P9 R8
G1 X249.851 Y365.258 E.02345
G1 X272.398 Y387.805 E1.15412
G1 X271.75 Y387.805 E.02345
G1 X249.851 Y365.906 E1.12095
G1 X249.851 Y366.554 E.02345
G1 X271.102 Y387.805 E1.08778
G1 X270.454 Y387.805 E.02345
G1 X249.851 Y367.202 E1.05461
M73 P9 R7
G1 X249.851 Y367.85 E.02345
G1 X269.806 Y387.805 E1.02144
G1 X269.158 Y387.805 E.02345
G1 X249.851 Y368.498 E.98827
G1 X249.851 Y369.146 E.02345
G1 X268.51 Y387.805 E.9551
G1 X267.862 Y387.805 E.02345
G1 X249.851 Y369.794 E.92193
G1 X249.851 Y370.442 E.02345
G1 X267.214 Y387.805 E.88876
G1 X266.566 Y387.805 E.02345
G1 X249.851 Y371.09 E.85559
G1 X249.851 Y371.738 E.02345
G1 X265.918 Y387.805 E.82243
G1 X265.27 Y387.805 E.02345
G1 X249.851 Y372.386 E.78926
M73 P10 R7
G1 X249.851 Y373.034 E.02345
G1 X264.622 Y387.805 E.75609
G1 X263.974 Y387.805 E.02345
G1 X249.851 Y373.682 E.72292
G1 X249.851 Y374.33 E.02345
G1 X263.326 Y387.805 E.68975
G1 X262.678 Y387.805 E.02345
G1 X249.851 Y374.978 E.65658
G1 X249.851 Y375.626 E.02345
G1 X262.03 Y387.805 E.62341
G1 X261.382 Y387.805 E.02345
G1 X249.851 Y376.274 E.59024
G1 X249.851 Y376.922 E.02345
G1 X260.734 Y387.805 E.55707
G1 X260.086 Y387.805 E.02345
G1 X249.851 Y377.57 E.5239
G1 X249.851 Y378.218 E.02345
G1 X259.438 Y387.805 E.49073
G1 X258.79 Y387.805 E.02345
G1 X249.851 Y378.866 E.45756
G1 X249.851 Y379.514 E.02345
G1 X258.142 Y387.805 E.42439
G1 X257.494 Y387.805 E.02345
G1 X249.851 Y380.162 E.39122
G1 X249.851 Y380.81 E.02345
G1 X256.846 Y387.805 E.35805
G1 X256.198 Y387.805 E.02345
G1 X249.851 Y381.458 E.32488
G1 X249.851 Y382.106 E.02345
G1 X255.55 Y387.805 E.29172
M73 P11 R7
G1 X254.902 Y387.805 E.02345
G1 X249.851 Y382.754 E.25855
G1 X249.851 Y383.402 E.02345
G1 X254.254 Y387.805 E.22538
G1 X253.606 Y387.805 E.02345
G1 X249.851 Y384.05 E.19221
G1 X249.851 Y384.698 E.02345
G1 X252.958 Y387.805 E.15904
G1 X252.31 Y387.805 E.02345
G1 X249.851 Y385.346 E.12587
G1 X249.851 Y385.994 E.02345
G1 X251.662 Y387.805 E.0927
G1 X251.014 Y387.805 E.02345
G1 X249.851 Y386.642 E.05953
G1 X249.851 Y387.29 E.02345
G1 X250.571 Y388.01 E.03689
; stop printing object Cube id:1 copy 0
; printing object Cube id:7 copy 0
G1 E-.56 F1800
;WIPE_START
G1 F6300
G1 X249.864 Y387.303 E-.24
;WIPE_END
EXCLUDE_OBJECT_END NAME=Cube_id_1_copy_0
EXCLUDE_OBJECT_START NAME=Cube_id_7_copy_0
G1 X168.94 Y388.413 F30000
G1 E.8 F1800
;TYPE:Outer wall
;WIDTH:0.5
G1 F3000
G1 X129.74 Y388.413 E1.41536
G1 X129.74 Y349.213 E1.41536
G1 X168.94 Y349.213 E1.41536
G1 X168.94 Y388.373 E1.41391
M73 P12 R7
G1 E-.56 F1800
;WIPE_START
G1 F3000
G1 X167.94 Y388.374 E-.24
;WIPE_END
G1 X168.757 Y350.322 F30000
G1 E.8 F1800
;TYPE:Bottom surface
;WIDTH:0.501125
G1 F6300
G1 X168.036 Y349.602 E.03689
G1 X167.388 Y349.602 E.02345
G1 X168.551 Y350.765 E.05953
G1 X168.551 Y351.413 E.02345
G1 X166.74 Y349.602 E.0927
G1 X166.092 Y349.602 E.02345
G1 X168.551 Y352.061 E.12587
G1 X168.551 Y352.709 E.02345
G1 X165.444 Y349.602 E.15904
G1 X164.796 Y349.602 E.02345
G1 X168.551 Y353.357 E.19221
G1 X168.551 Y354.005 E.02345
G1 X164.148 Y349.602 E.22538
G1 X163.5 Y349.602 E.02345
G1 X168.551 Y354.653 E.25855
G1 X168.551 Y355.301 E.02345
G1 X162.852 Y349.602 E.29172
G1 X162.204 Y349.602 E.02345
G1 X168.551 Y355.949 E.32489
G1 X168.551 Y356.597 E.02345
G1 X161.556 Y349.602 E.35805
G1 X160.908 Y349.602 E.02345
G1 X168.551 Y357.245 E.39122
G1 X168.551 Y357.893 E.02345
G1 X160.26 Y349.602 E.42439
G1 X159.612 Y349.602 E.02345
G1 X168.551 Y358.541 E.45756
G1 X168.551 Y359.189 E.02345
G1 X158.964 Y349.602 E.49073
G1 X158.316 Y349.602 E.02345
G1 X168.551 Y359.837 E.5239
G1 X168.551 Y360.485 E.02345
G1 X157.668 Y349.602 E.55707
G1 X157.02 Y349.602 E.02345
G1 X168.551 Y361.133 E.59024
M73 P13 R7
G1 X168.551 Y361.781 E.02345
G1 X156.372 Y349.602 E.62341
G1 X155.724 Y349.602 E.02345
G1 X168.551 Y362.429 E.65658
G1 X168.551 Y363.077 E.02345
G1 X155.076 Y349.602 E.68975
G1 X154.428 Y349.602 E.02345
G1 X168.551 Y363.725 E.72292
G1 X168.551 Y364.373 E.02345
G1 X153.78 Y349.602 E.75609
G1 X153.132 Y349.602 E.02345
G1 X168.551 Y365.021 E.78926
G1 X168.551 Y365.669 E.02345
G1 X152.484 Y349.602 E.82243
G1 X151.836 Y349.602 E.02345
G1 X168.551 Y366.317 E.8556
G1 X168.551 Y366.965 E.02345
G1 X151.188 Y349.602 E.88876
G1 X150.54 Y349.602 E.02345
G1 X168.551 Y367.613 E.92193
G1 X168.551 Y368.261 E.02345
G1 X149.892 Y349.602 E.9551
G1 X149.244 Y349.602 E.02345
G1 X168.551 Y368.909 E.98827
G1 X168.551 Y369.557 E.02345
M73 P14 R7
G1 X148.596 Y349.602 E1.02144
G1 X147.948 Y349.602 E.02345
G1 X168.551 Y370.205 E1.05461
G1 X168.551 Y370.853 E.02345
G1 X147.3 Y349.602 E1.08778
G1 X146.652 Y349.602 E.02345
G1 X168.551 Y371.501 E1.12095
G1 X168.551 Y372.149 E.02345
G1 X146.004 Y349.602 E1.15412
G1 X145.356 Y349.602 E.02345
G1 X168.551 Y372.797 E1.18729
G1 X168.551 Y373.445 E.02345
G1 X144.708 Y349.602 E1.22046
G1 X144.06 Y349.602 E.02345
G1 X168.551 Y374.093 E1.25363
G1 X168.551 Y374.741 E.02345
G1 X143.412 Y349.602 E1.2868
G1 X142.764 Y349.602 E.02345
G1 X168.551 Y375.389 E1.31997
G1 X168.551 Y376.037 E.02345
G1 X142.116 Y349.602 E1.35314
M73 P15 R7
G1 X141.468 Y349.602 E.02345
G1 X168.551 Y376.685 E1.38631
G1 X168.551 Y377.333 E.02345
G1 X140.82 Y349.602 E1.41947
G1 X140.172 Y349.602 E.02345
G1 X168.551 Y377.981 E1.45264
G1 X168.551 Y378.629 E.02345
G1 X139.524 Y349.602 E1.48581
G1 X138.876 Y349.602 E.02345
G1 X168.551 Y379.277 E1.51898
G1 X168.551 Y379.925 E.02345
G1 X138.228 Y349.602 E1.55215
G1 X137.58 Y349.602 E.02345
G1 X168.551 Y380.573 E1.58532
G1 X168.551 Y381.221 E.02345
G1 X136.932 Y349.602 E1.61849
G1 X136.284 Y349.602 E.02345
G1 X168.551 Y381.869 E1.65166
M73 P16 R7
G1 X168.551 Y382.517 E.02345
G1 X135.636 Y349.602 E1.68483
G1 X134.988 Y349.602 E.02345
G1 X168.551 Y383.165 E1.718
G1 X168.551 Y383.813 E.02345
G1 X134.34 Y349.602 E1.75117
G1 X133.692 Y349.602 E.02345
G1 X168.551 Y384.461 E1.78434
G1 X168.551 Y385.109 E.02345
G1 X133.044 Y349.602 E1.81751
G1 X132.396 Y349.602 E.02345
G1 X168.551 Y385.757 E1.85068
G1 X168.551 Y386.405 E.02345
G1 X131.748 Y349.602 E1.88385
G1 X131.1 Y349.602 E.02345
M73 P17 R7
G1 X168.551 Y387.053 E1.91702
G1 X168.551 Y387.701 E.02345
G1 X130.452 Y349.602 E1.95018
G1 X130.128 Y349.602 E.01173
G1 X130.128 Y349.926 E.01173
G1 X168.227 Y388.025 E1.95018
