; HEADER_BLOCK_START
; generated by OrcaSlicer 1.8.0-beta2 on 2024-03-09 at 11:27:32
; total layer number: 167
; HEADER_BLOCK_END

; THUMBNAIL_BLOCK_START
; THUMBNAIL_BLOCK_END

; external perimeters extrusion width = 0.42mm
; perimeters extrusion width = 0.45mm
; infill extrusion width = 0.45mm
; solid infill extrusion width = 0.42mm
; top infill extrusion width = 0.45mm
; first layer extrusion width = 0.50mm

; external perimeters extrusion width = 0.42mm
; perimeters extrusion width = 0.45mm
; infill extrusion width = 0.45mm
; solid infill extrusion width = 0.42mm
; top infill extrusion width = 0.45mm
; first layer extrusion width = 0.50mm

; external perimeters extrusion width = 0.42mm
; perimeters extrusion width = 0.45mm
; infill extrusion width = 0.45mm
; solid infill extrusion width = 0.42mm
; top infill extrusion width = 0.45mm
; first layer extrusion width = 0.50mm

; external perimeters extrusion width = 0.42mm
; perimeters extrusion width = 0.45mm
; infill extrusion width = 0.45mm
; solid infill extrusion width = 0.42mm
; top infill extrusion width = 0.45mm
; first layer extrusion width = 0.50mm

; external perimeters extrusion width = 0.42mm
; perimeters extrusion width = 0.45mm
; infill extrusion width = 0.45mm
; solid infill extrusion width = 0.42mm
; top infill extrusion width = 0.45mm
; first layer extrusion width = 0.50mm

; external perimeters extrusion width = 0.42mm
; perimeters extrusion width = 0.45mm
; infill extrusion width = 0.45mm
; solid infill extrusion width = 0.42mm
; top infill extrusion width = 0.45mm
; first layer extrusion width = 0.50mm

; external perimeters extrusion width = 0.42mm
; perimeters extrusion width = 0.45mm
; infill extrusion width = 0.45mm
; solid infill extrusion width = 0.42mm
; top infill extrusion width = 0.45mm
; first layer extrusion width = 0.50mm

; external perimeters extrusion width = 0.42mm
; perimeters extrusion width = 0.45mm
; infill extrusion width = 0.45mm
; solid infill extrusion width = 0.42mm
; top infill extrusion width = 0.45mm
; first layer extrusion width = 0.50mm

; EXECUTABLE_BLOCK_START
EXCLUDE_OBJECT_DEFINE NAME=Cube_id_0_copy_0 CENTER=150.758,197.844 POLYGON=[[100.758,147.844],[200.758,147.844],[200.758,247.844],[100.758,247.844],[100.758,147.844]]
M73 P0 R27
;TYPE:Custom
M190 S70
M109 S235
PRINT_START EXTRUDER=235 BED=70
; You can use following code instead if your PRINT_START macro support Chamber and print area bedmesh
; PRINT_START EXTRUDER=235 BED=70 Chamber=0 PRINT_MIN=89.6876,136.774 PRINT_MAX=211.827,258.914
G90
G21
M83 ; use relative distances for extrusion
; filament start gcode
M106 P3 S180
;Prevent PLA from jamming

SET_PRESSURE_ADVANCE ADVANCE=0.04; Override pressure advance value
M106 S0
;LAYER_CHANGE
;Z:0.2
;HEIGHT:0.2
;BEFORE_LAYER_CHANGE
;0.2
G92 E0

G1 E-.8 F1800
;AFTER_LAYER_CHANGE
;0.2
;_SET_FAN_SPEED_CHANGING_LAYER
SET_VELOCITY_LIMIT ACCEL=500 ACCEL_TO_DECEL=250
; printing object Cube id:0 copy 0
EXCLUDE_OBJECT_START NAME=Cube_id_0_copy_0
G1 X94.746 Y138.822 F30000
G1 Z.2
G1 E.8 F1800
;TYPE:Brim
;WIDTH:0.5
G1 F3000
G1 X95.625 Y138.295 E.03702
G1 X96.55 Y137.854 E.03697
G1 X97.737 Y137.436 E.04545
G1 X98.787 Y137.185 E.03897
G1 X99.803 Y137.045 E.03702
G1 X100.763 Y137.002 E.0347
G1 X200.752 Y137.002 E3.61022
M73 P0 R26
G1 X201.782 Y137.052 E.03721
G1 X202.796 Y137.198 E.03702
G1 X203.793 Y137.44 E.03702
G1 X204.759 Y137.776 E.03696
G1 X205.959 Y138.346 E.04796
G1 X206.915 Y138.931 E.04045
G1 X207.732 Y139.55 E.037
G1 X208.486 Y140.244 E.03702
G1 X209.171 Y141.007 E.03702
G1 X209.779 Y141.832 E.03702
G1 X210.307 Y142.712 E.03702
G1 X210.747 Y143.636 E.03696
G1 X211.18 Y144.876 E.04743
G1 X211.416 Y145.873 E.03698
G1 X211.556 Y146.889 E.03703
G1 X211.599 Y147.849 E.0347
G1 X211.599 Y247.838 E3.61022
G1 X211.55 Y248.868 E.03721
G1 X211.403 Y249.882 E.03702
G1 X211.161 Y250.879 E.03702
G1 X210.825 Y251.845 E.03694
G1 X210.209 Y253.129 E.05144
G1 X209.671 Y254.001 E.03698
G1 X209.051 Y254.818 E.03702
G1 X208.357 Y255.572 E.03702
G1 X207.594 Y256.257 E.03702
G1 X206.769 Y256.866 E.03702
G1 X205.89 Y257.393 E.03702
G1 X204.965 Y257.833 E.03697
G1 X203.778 Y258.251 E.04545
G1 X202.728 Y258.502 E.03897
G1 X201.712 Y258.642 E.03702
G1 X200.752 Y258.685 E.0347
G1 X100.763 Y258.685 E3.61022
G1 X99.733 Y258.636 E.03721
G1 X98.719 Y258.49 E.03702
G1 X97.723 Y258.247 E.03702
G1 X96.756 Y257.911 E.03694
G1 X95.472 Y257.295 E.05144
G1 X94.6 Y256.757 E.03698
G1 X93.783 Y256.137 E.03702
G1 X93.029 Y255.443 E.03702
G1 X92.344 Y254.68 E.03702
G1 X91.736 Y253.855 E.03702
G1 X91.208 Y252.976 E.03702
G1 X90.768 Y252.051 E.03697
G1 X90.35 Y250.864 E.04545
G1 X90.099 Y249.814 E.03897
G1 X89.959 Y248.799 E.03702
G1 X89.916 Y247.839 E.0347
G1 X89.916 Y147.849 E3.61022
G1 X89.965 Y146.82 E.03721
G1 X90.112 Y145.805 E.03702
G1 X90.354 Y144.809 E.03702
G1 X90.69 Y143.842 E.03694
G1 X91.307 Y142.558 E.05144
G1 X91.845 Y141.687 E.03698
G1 X92.464 Y140.87 E.03702
G1 X93.158 Y140.115 E.03702
G1 X93.921 Y139.431 E.03702
G1 X94.714 Y138.846 E.03557
G1 X94.986 Y139.214 F30000
G1 F3000
G1 X95.006 Y139.199 E.0009
G1 X95.836 Y138.701 E.03497
G1 X96.718 Y138.28 E.03528
G1 X97.86 Y137.877 E.04372
G1 X98.865 Y137.636 E.03731
G1 X99.838 Y137.502 E.03546
G1 X100.77 Y137.46 E.03369
G1 X200.744 Y137.46 E3.60969
G1 X201.731 Y137.507 E.03568
G1 X202.703 Y137.646 E.03544
G1 X203.657 Y137.878 E.03544
G1 X204.579 Y138.197 E.03523
G1 X205.747 Y138.753 E.04672
G1 X206.651 Y139.305 E.03825
G1 X207.443 Y139.905 E.03587
G1 X208.165 Y140.571 E.03544
G1 X208.82 Y141.302 E.03544
G1 X209.402 Y142.092 E.03544
G1 X209.906 Y142.934 E.03544
G1 X210.326 Y143.817 E.03531
G1 X210.739 Y144.998 E.04515
G1 X210.967 Y145.963 E.03583
G1 X211.101 Y146.936 E.03547
G1 X211.142 Y147.862 E.03345
G1 X211.142 Y247.824 E3.60923
G1 X211.094 Y248.818 E.03591
G1 X210.955 Y249.789 E.03544
G1 X210.724 Y250.743 E.03544
G1 X210.405 Y251.663 E.03517
G1 X209.803 Y252.916 E.05017
G1 X209.289 Y253.747 E.03529
G1 X208.696 Y254.529 E.03544
G1 X208.03 Y255.251 E.03544
G1 X207.299 Y255.906 E.03544
G1 X206.509 Y256.488 E.03544
G1 X205.679 Y256.986 E.03497
G1 X204.797 Y257.407 E.03528
G1 X203.655 Y257.81 E.04372
G1 X202.65 Y258.051 E.03731
G1 X201.677 Y258.186 E.03546
G1 X200.739 Y258.228 E.03391
G1 X100.777 Y258.228 E3.60923
M73 P1 R26
G1 X99.784 Y258.181 E.03591
G1 X98.812 Y258.041 E.03544
G1 X97.858 Y257.81 E.03544
G1 X96.938 Y257.491 E.03517
G1 X95.685 Y256.889 E.05017
G1 X94.854 Y256.375 E.03529
G1 X94.072 Y255.782 E.03544
G1 X93.35 Y255.117 E.03544
G1 X92.695 Y254.386 E.03544
G1 X92.113 Y253.595 E.03544
G1 X91.615 Y252.765 E.03497
G1 X91.194 Y251.883 E.03528
G1 X90.791 Y250.741 E.04372
G1 X90.55 Y249.736 E.03731
G1 X90.416 Y248.763 E.03546
G1 X90.373 Y247.825 E.03391
G1 X90.373 Y147.863 E3.60923
G1 X90.421 Y146.87 E.03591
G1 X90.56 Y145.898 E.03544
G1 X90.792 Y144.944 E.03544
G1 X91.11 Y144.024 E.03517
G1 X91.712 Y142.771 E.05017
G1 X92.226 Y141.94 E.03529
G1 X92.819 Y141.158 E.03544
G1 X93.485 Y140.437 E.03544
G1 X94.216 Y139.782 E.03544
G1 X94.953 Y139.238 E.03309
G1 X95.225 Y139.606 F30000
G1 F3000
G1 X95.265 Y139.577 E.00181
G1 X96.059 Y139.101 E.0334
G1 X96.886 Y138.706 E.03312
G1 X97.983 Y138.319 E.04199
G1 X98.943 Y138.088 E.03566
G1 X99.873 Y137.958 E.0339
G1 X100.777 Y137.917 E.03267
G1 X200.73 Y137.917 E3.60891
G1 X201.681 Y137.962 E.03438
G1 X202.61 Y138.095 E.03386
G1 X203.521 Y138.315 E.03386
G1 X204.398 Y138.618 E.0335
G1 X205.536 Y139.159 E.04547
G1 X206.387 Y139.68 E.03605
G1 X207.154 Y140.261 E.03474
G1 X207.843 Y140.897 E.03385
G1 X208.469 Y141.596 E.03386
G1 X209.024 Y142.351 E.03386
G1 X209.506 Y143.156 E.03386
G1 X209.905 Y143.998 E.03366
G1 X210.297 Y145.119 E.04288
G1 X210.516 Y146.041 E.03419
G1 X210.645 Y146.984 E.03438
G1 X210.685 Y147.875 E.03221
G1 X210.685 Y247.81 E3.60824
G1 X210.639 Y248.768 E.03462
G1 X210.507 Y249.696 E.03386
G1 X210.286 Y250.608 E.03386
G1 X209.984 Y251.482 E.03339
G1 X209.398 Y252.702 E.04889
G1 X208.908 Y253.494 E.0336
G1 X208.34 Y254.24 E.03386
G1 X207.704 Y254.929 E.03386
G1 X207.005 Y255.555 E.03386
G1 X206.25 Y256.111 E.03387
G1 X205.456 Y256.586 E.0334
G1 X204.629 Y256.981 E.03312
G1 X203.532 Y257.369 E.04199
G1 X202.572 Y257.6 E.03566
G1 X201.642 Y257.729 E.0339
G1 X200.726 Y257.771 E.03311
G1 X100.791 Y257.771 E3.60824
G1 X99.834 Y257.725 E.03462
G1 X98.905 Y257.593 E.03386
G1 X97.994 Y257.372 E.03386
G1 X97.12 Y257.07 E.03339
G1 X95.899 Y256.484 E.04889
G1 X95.108 Y255.994 E.0336
G1 X94.361 Y255.427 E.03386
G1 X93.672 Y254.79 E.03386
G1 X93.047 Y254.092 E.03386
G1 X92.491 Y253.336 E.03387
G1 X92.015 Y252.543 E.0334
G1 X91.62 Y251.715 E.03312
G1 X91.232 Y250.618 E.04199
G1 X91.001 Y249.658 E.03566
G1 X90.872 Y248.728 E.0339
G1 X90.83 Y247.812 E.03311
G1 X90.83 Y147.877 E3.60824
G1 X90.876 Y146.92 E.03462
G1 X91.008 Y145.991 E.03386
G1 X91.229 Y145.08 E.03386
G1 X91.531 Y144.206 E.03339
G1 X92.117 Y142.985 E.04889
G1 X92.607 Y142.194 E.0336
G1 X93.175 Y141.447 E.03386
G1 X93.811 Y140.758 E.03386
G1 X94.51 Y140.133 E.03386
G1 X95.192 Y139.63 E.03061
G1 X95.463 Y139.999 F30000
G1 F3000
G1 X95.524 Y139.954 E.00271
G1 X96.269 Y139.508 E.03137
G1 X97.055 Y139.132 E.03144
G1 X98.106 Y138.76 E.04026
G1 X99.022 Y138.539 E.03401
G1 X99.909 Y138.415 E.03235
G1 X100.784 Y138.374 E.03164
G1 X200.723 Y138.374 E3.60838
G1 X201.632 Y138.417 E.03286
G1 X202.517 Y138.543 E.03229
G1 X203.386 Y138.753 E.03228
G1 X204.218 Y139.04 E.03175
G1 X205.324 Y139.565 E.04422
G1 X206.124 Y140.054 E.03385
G1 X206.865 Y140.616 E.0336
G1 X207.522 Y141.223 E.03226
G1 X208.117 Y141.89 E.03228
G1 X208.647 Y142.61 E.03228
G1 X209.105 Y143.378 E.03228
G1 X209.484 Y144.179 E.03201
G1 X209.855 Y145.241 E.04063
G1 X210.067 Y146.131 E.03304
G1 X210.19 Y147.032 E.03281
G1 X210.228 Y147.888 E.03097
G1 X210.228 Y247.796 E3.60726
M73 P2 R26
G1 X210.184 Y248.718 E.03333
G1 X210.058 Y249.603 E.03229
G1 X209.848 Y250.473 E.03228
G1 X209.563 Y251.3 E.03161
G1 X208.992 Y252.489 E.04761
G1 X208.527 Y253.24 E.0319
G1 X207.985 Y253.951 E.03228
G1 X207.378 Y254.608 E.03228
G1 X206.712 Y255.203 E.03228
G1 X205.991 Y255.733 E.03229
G1 X205.246 Y256.179 E.03137
G1 X204.46 Y256.555 E.03144
G1 X203.409 Y256.928 E.04026
G1 X202.493 Y257.149 E.03401
G1 X201.606 Y257.273 E.03234
G1 X200.712 Y257.314 E.03231
G1 X100.805 Y257.314 E3.60724
G1 X99.883 Y257.27 E.03333
G1 X98.998 Y257.144 E.03229
G1 X98.129 Y256.935 E.03228
G1 X97.301 Y256.649 E.03161
G1 X96.112 Y256.079 E.04761
G1 X95.362 Y255.613 E.0319
G1 X94.65 Y255.071 E.03228
G1 X93.994 Y254.465 E.03228
G1 X93.398 Y253.798 E.03228
G1 X92.868 Y253.077 E.03229
G1 X92.422 Y252.332 E.03137
G1 X92.046 Y251.546 E.03144
G1 X91.674 Y250.495 E.04026
G1 X91.453 Y249.58 E.03401
G1 X91.329 Y248.692 E.03234
G1 X91.287 Y247.799 E.03231
G1 X91.287 Y147.892 E3.60724
G1 X91.331 Y146.969 E.03333
G1 X91.457 Y146.084 E.03229
G1 X91.667 Y145.215 E.03228
G1 X91.952 Y144.387 E.03161
G1 X92.523 Y143.199 E.04761
G1 X92.988 Y142.448 E.0319
G1 X93.53 Y141.736 E.03228
G1 X94.137 Y141.08 E.03228
G1 X94.803 Y140.484 E.03228
G1 X95.431 Y140.023 E.02813
G1 X95.702 Y140.391 F30000
G1 F3000
G1 X95.783 Y140.332 E.00362
G1 X96.48 Y139.914 E.02935
G1 X97.224 Y139.558 E.02977
G1 X98.23 Y139.201 E.03854
G1 X99.101 Y138.99 E.03236
G1 X99.945 Y138.871 E.03079
G1 X100.792 Y138.831 E.03061
G1 X200.715 Y138.831 E3.60783
G1 X201.582 Y138.872 E.03134
G1 X202.425 Y138.992 E.03072
G1 X203.252 Y139.19 E.03071
G1 X204.037 Y139.461 E.03001
G1 X205.112 Y139.971 E.04296
G1 X205.871 Y140.436 E.03214
G1 X206.576 Y140.972 E.03197
G1 X207.2 Y141.549 E.03066
G1 X207.766 Y142.183 E.0307
G1 X208.269 Y142.869 E.03071
G1 X208.704 Y143.599 E.0307
G1 X209.063 Y144.359 E.03036
G1 X209.414 Y145.363 E.03838
G1 X209.616 Y146.209 E.03139
G1 X209.734 Y147.079 E.03171
G1 X209.771 Y147.901 E.02973
G1 X209.771 Y247.782 E3.60628
G1 X209.729 Y248.668 E.03205
G1 X209.61 Y249.511 E.03072
G1 X209.411 Y250.338 E.03071
G1 X209.142 Y251.119 E.02981
G1 X208.587 Y252.275 E.04632
G1 X208.146 Y252.985 E.03019
G1 X207.63 Y253.662 E.03071
G1 X207.053 Y254.286 E.0307
G1 X206.418 Y254.852 E.0307
G1 X205.732 Y255.355 E.03072
G1 X205.035 Y255.773 E.02935
G1 X204.291 Y256.129 E.02977
G1 X203.285 Y256.486 E.03854
G1 X202.414 Y256.697 E.03236
G1 X201.57 Y256.816 E.03078
G1 X200.699 Y256.857 E.03151
G1 X100.819 Y256.857 E3.60624
G1 X99.933 Y256.815 E.03205
G1 X99.09 Y256.696 E.03072
G1 X98.263 Y256.497 E.03071
G1 X97.483 Y256.228 E.02981
G1 X96.326 Y255.673 E.04632
G1 X95.616 Y255.232 E.03019
G1 X94.94 Y254.716 E.03071
G1 X94.315 Y254.139 E.0307
G1 X93.749 Y253.504 E.0307
G1 X93.246 Y252.818 E.03072
G1 X92.828 Y252.121 E.02935
G1 X92.472 Y251.377 E.02977
G1 X92.115 Y250.371 E.03854
G1 X91.904 Y249.501 E.03236
G1 X91.785 Y248.656 E.03078
G1 X91.744 Y247.785 E.0315
G1 X91.744 Y147.906 E3.60624
G1 X91.786 Y147.019 E.03205
G1 X91.905 Y146.177 E.03072
G1 X92.104 Y145.35 E.03071
G1 X92.373 Y144.569 E.02981
G1 X92.928 Y143.412 E.04632
G1 X93.369 Y142.702 E.03019
G1 X93.885 Y142.026 E.03071
G1 X94.462 Y141.402 E.0307
G1 X95.097 Y140.835 E.0307
G1 X95.67 Y140.415 E.02565
G1 X95.94 Y140.784 F30000
G1 F3000
G1 X96.042 Y140.71 E.00454
G1 X96.703 Y140.315 E.02781
G1 X97.393 Y139.984 E.02764
G1 X98.354 Y139.642 E.03682
G1 X99.18 Y139.441 E.0307
G1 X99.981 Y139.328 E.02922
G1 X100.799 Y139.288 E.02956
G1 X200.707 Y139.288 E3.60729
M73 P3 R26
G1 X201.533 Y139.328 E.02983
G1 X202.333 Y139.44 E.02916
G1 X203.117 Y139.628 E.02913
G1 X203.857 Y139.882 E.02825
G1 X204.9 Y140.378 E.04169
G1 X205.618 Y140.818 E.03042
G1 X206.287 Y141.327 E.03034
G1 X206.877 Y141.874 E.02906
G1 X207.414 Y142.476 E.02913
G1 X207.891 Y143.127 E.02913
G1 X208.303 Y143.82 E.02911
G1 X208.642 Y144.54 E.02872
G1 X208.972 Y145.485 E.03616
G1 X209.167 Y146.3 E.03023
G1 X209.279 Y147.126 E.03012
G1 X209.313 Y147.914 E.02849
G1 X209.313 Y247.768 E3.6053
G1 X209.274 Y248.619 E.03077
G1 X209.161 Y249.419 E.02916
G1 X208.973 Y250.203 E.02913
G1 X208.721 Y250.937 E.02802
G1 X208.182 Y252.061 E.04501
G1 X207.765 Y252.731 E.02847
G1 X207.276 Y253.372 E.02913
G1 X206.727 Y253.964 E.02913
G1 X206.125 Y254.5 E.02913
G1 X205.473 Y254.977 E.02916
G1 X204.812 Y255.373 E.02781
G1 X204.122 Y255.703 E.02764
G1 X203.161 Y256.045 E.03682
G1 X202.335 Y256.246 E.0307
G1 X201.521 Y256.361 E.02967
G1 X200.685 Y256.4 E.03024
G1 X100.833 Y256.4 E3.60524
G1 X99.982 Y256.36 E.03077
G1 X99.182 Y256.247 E.02916
G1 X98.398 Y256.059 E.02913
G1 X97.664 Y255.807 E.02802
G1 X96.54 Y255.268 E.04501
G1 X95.87 Y254.851 E.02847
G1 X95.229 Y254.362 E.02913
G1 X94.638 Y253.813 E.02913
G1 X94.101 Y253.211 E.02913
G1 X93.624 Y252.56 E.02916
G1 X93.229 Y251.898 E.02781
G1 X92.898 Y251.208 E.02764
G1 X92.556 Y250.248 E.03682
G1 X92.355 Y249.421 E.0307
G1 X92.24 Y248.608 E.02967
G1 X92.202 Y247.771 E.03024
G1 X92.202 Y147.92 E3.60524
G1 X92.242 Y147.068 E.03077
G1 X92.354 Y146.269 E.02916
G1 X92.542 Y145.484 E.02913
G1 X92.794 Y144.75 E.02802
G1 X93.333 Y143.626 E.04501
G1 X93.75 Y142.957 E.02847
G1 X94.239 Y142.315 E.02913
G1 X94.788 Y141.724 E.02913
G1 X95.39 Y141.187 E.02913
G1 X95.908 Y140.808 E.02317
G1 X96.178 Y141.177 F30000
G1 F3000
G1 X96.3 Y141.088 E.00546
G1 X96.914 Y140.721 E.02582
G1 X97.562 Y140.41 E.02598
G1 X98.478 Y140.083 E.0351
G1 X99.26 Y139.892 E.02905
G1 X100.018 Y139.784 E.02766
G1 X100.807 Y139.746 E.02851
G1 X200.7 Y139.746 E3.60673
G1 X201.484 Y139.783 E.02833
G1 X202.241 Y139.889 E.0276
G1 X202.983 Y140.066 E.02755
G1 X203.677 Y140.304 E.02649
G1 X204.688 Y140.784 E.04042
G1 X205.365 Y141.2 E.0287
G1 X205.998 Y141.682 E.0287
G1 X206.555 Y142.199 E.02746
G1 X207.062 Y142.769 E.02755
G1 X207.512 Y143.385 E.02755
G1 X207.902 Y144.041 E.02753
G1 X208.221 Y144.72 E.02708
G1 X208.531 Y145.607 E.03395
G1 X208.715 Y146.377 E.02858
G1 X208.824 Y147.173 E.02902
G1 X208.856 Y147.927 E.02725
G1 X208.856 Y247.754 E3.60433
G1 X208.818 Y248.57 E.0295
G1 X208.712 Y249.327 E.02759
G1 X208.535 Y250.069 E.02755
G1 X208.3 Y250.756 E.02621
G1 X207.777 Y251.847 E.0437
G1 X207.385 Y252.476 E.02675
G1 X206.921 Y253.082 E.02755
G1 X206.402 Y253.641 E.02755
G1 X205.832 Y254.148 E.02755
G1 X205.215 Y254.599 E.02759
