; HEADER_BLOCK_START
; generated by OrcaSlicer 2.0.0-beta on 2024-04-17 at 08:30:33
; total layer number: 100
; filament_density: 1.24
; filament_diameter: 1.75
; max_z_height: 30.00
; HEADER_BLOCK_END

; THUMBNAIL_BLOCK_START

;
; THUMBNAIL_BLOCK_END

; external perimeters extrusion width = 0.60mm
; perimeters extrusion width = 0.60mm
; infill extrusion width = 0.70mm
; solid infill extrusion width = 0.84mm
; top infill extrusion width = 0.60mm
; first layer extrusion width = 0.60mm

; external perimeters extrusion width = 0.60mm
; perimeters extrusion width = 0.60mm
; infill extrusion width = 0.70mm
; solid infill extrusion width = 0.84mm
; top infill extrusion width = 0.60mm
; first layer extrusion width = 0.60mm

; EXECUTABLE_BLOCK_START
M73 P0 R18


; Pre-Processed for Cancel-Object support by preprocess_cancellation v0.2.0
; 2 known objects
EXCLUDE_OBJECT_DEFINE NAME=OrcaCube_id_0_copy_0 CENTER=150.552,213.722 POLYGON=[[135.3,199.561],[135.3,228.961],[164.7,228.961],[164.7,199.561]]
EXCLUDE_OBJECT_DEFINE NAME=OrcaPlug_id_0_copy_0 CENTER=150.349,181.745 POLYGON=[[139.928,171.323],[139.928,192.151],[160.76,192.151],[160.76,171.323]]
;TYPE:Custom
;M190 S60
;M109 S215
PRINT_START EXTRUDER=215 BED=60
; You can use following code instead if your PRINT_START macro support Chamber and print area bedmesh
; PRINT_START EXTRUDER=215 BED=60 Chamber=0 PRINT_MIN=135.25,170.873 PRINT_MAX=164.75,229.011
G90
G21
M83 ; use relative distances for extrusion
; filament start gcode
M106 S0
;LAYER_CHANGE
;Z:0.3
;HEIGHT:0.3
;BEFORE_LAYER_CHANGE
;0.3
G92 E0

G1 E-.8 F1800
;AFTER_LAYER_CHANGE
;0.3
;_SET_FAN_SPEED_CHANGING_LAYER
SET_VELOCITY_LIMIT ACCEL=500 ACCEL_TO_DECEL=250
; printing object OrcaCube id:0 copy 0
EXCLUDE_OBJECT_START NAME=OrcaCube_id_0_copy_0
G1 X140.029 Y206.657 F30000
G1 Z.3
G1 E.8 F1800
;TYPE:Inner wall
;WIDTH:0.6
G1 F3000
G1 X140.089 Y206.575 E.00663
G1 X140.682 Y205.866 E.06025
G1 X141.334 Y205.195 E.06089
G1 X141.702 Y204.857 E.03255
G1 X142.417 Y204.271 E.06025
G1 X143.193 Y203.727 E.06172
G1 X143.988 Y203.254 E.06025
G1 X144.422 Y203.028 E.03186
G1 X144.865 Y202.819 E.03192
G1 X145.719 Y202.472 E.06004
G1 X146.609 Y202.187 E.0609
G1 X147.093 Y202.061 E.03255
G1 X147.984 Y201.883 E.0592
G1 X148.479 Y201.812 E.03255
G1 X149.411 Y201.733 E.06092
G1 X150.359 Y201.724 E.06174
G1 X151.279 Y201.785 E.06005
G1 X151.775 Y201.846 E.03255
G1 X152.682 Y202.01 E.06008
G1 X153.168 Y202.126 E.03255
G1 X154.051 Y202.391 E.06004
G1 X154.924 Y202.727 E.0609
G1 X155.38 Y202.932 E.03257
G1 X156.202 Y203.36 E.06035
G1 X157.007 Y203.859 E.06175
G1 X157.756 Y204.405 E.06035
G1 X158.497 Y205.037 E.06343
G1 X159.149 Y205.683 E.05981
G1 X159.777 Y206.405 E.0623
G1 X160.325 Y207.142 E.05981
G1 X160.603 Y207.563 E.03284
G1 X161.073 Y208.372 E.06095
G1 X161.478 Y209.206 E.06038
G1 X161.835 Y210.112 E.06345
G1 X162.108 Y210.989 E.05986
G1 X162.322 Y211.922 E.0623
G1 X162.46 Y212.83 E.05986
G1 X162.533 Y213.81 E.06402
G1 X162.533 Y214.729 E.05986
G1 X162.461 Y215.683 E.06229
G1 X162.323 Y216.592 E.05989
G1 X162.219 Y217.086 E.03285
G1 X161.975 Y217.989 E.06093
G1 X161.67 Y218.856 E.05988
G1 X161.278 Y219.748 E.06346
G1 X160.846 Y220.559 E.0599
G1 X160.346 Y221.35 E.06096
G1 X160.053 Y221.761 E.03285
G1 X159.476 Y222.478 E.05993
G1 X158.822 Y223.176 E.06228
G1 X158.145 Y223.798 E.05994
G1 X157.373 Y224.406 E.06399
G1 X156.61 Y224.92 E.05993
G1 X155.786 Y225.389 E.06178
G1 X154.954 Y225.783 E.05994
G1 X154.037 Y226.136 E.06402
G1 X153.155 Y226.4 E.05995
G1 X152.228 Y226.604 E.0618
G1 X151.309 Y226.735 E.06047
G1 X150.337 Y226.798 E.06349
G1 X149.416 Y226.79 E.05999
G1 X148.463 Y226.709 E.06228
G1 X147.554 Y226.562 E.06001
G1 X147.061 Y226.454 E.03282
G1 X146.167 Y226.204 E.06049
G1 X145.294 Y225.887 E.0605
G1 X144.831 Y225.688 E.03282
G1 X144.017 Y225.284 E.05915
G1 X143.586 Y225.039 E.03235
G1 X142.799 Y224.531 E.06097
G1 X142.065 Y223.974 E.06002
G1 X141.682 Y223.647 E.03281
G1 X141.018 Y223.015 E.0597
G1 X140.674 Y222.647 E.03282
G1 X140.083 Y221.94 E.06005
G1 X139.527 Y221.162 E.06227
G1 X139.048 Y220.374 E.06007
G1 X138.812 Y219.929 E.03281
G1 X138.431 Y219.104 E.05921
G1 X138.25 Y218.647 E.03199
G1 X138.089 Y218.19 E.03153
G1 X137.833 Y217.305 E.06004
G1 X137.637 Y216.376 E.06183
G1 X137.515 Y215.452 E.06073
G1 X137.477 Y214.953 E.03255
G1 X137.46 Y214.042 E.0594
G1 X137.479 Y213.542 E.03254
G1 X137.567 Y212.612 E.06089
G1 X137.723 Y211.7 E.06024
G1 X137.834 Y211.213 E.03255
G1 X138.095 Y210.315 E.06089
G1 X138.418 Y209.449 E.06025
G1 X138.614 Y209.003 E.03171
G1 X138.827 Y208.565 E.03171
G1 X139.276 Y207.757 E.06024
G1 X139.791 Y206.976 E.06089
G1 X139.993 Y206.705 E.02201
G1 X140.458 Y206.977 F30000
G1 F3000
G1 X140.51 Y206.907 E.00565
G1 X141.08 Y206.224 E.05795
G1 X141.707 Y205.579 E.05859
G1 X142.053 Y205.262 E.03058
G1 X142.741 Y204.698 E.05795
G1 X143.484 Y204.177 E.05909
G1 X144.249 Y203.722 E.05795
G1 X144.66 Y203.508 E.03021
G1 X145.08 Y203.31 E.03027
G1 X145.902 Y202.976 E.05775
G1 X146.759 Y202.701 E.0586
G1 X147.213 Y202.583 E.03058
G1 X148.075 Y202.411 E.05724
G1 X148.54 Y202.345 E.03058
G1 X149.436 Y202.268 E.05861
G1 X150.344 Y202.26 E.05911
G1 X151.228 Y202.318 E.05776
G1 X151.694 Y202.376 E.03058
G1 X152.572 Y202.534 E.0581
G1 X153.029 Y202.644 E.03058
G1 X153.878 Y202.899 E.05775
G1 X154.718 Y203.221 E.0586
G1 X155.146 Y203.414 E.03059
G1 X155.936 Y203.825 E.05805
G1 X156.708 Y204.304 E.05912
G1 X157.428 Y204.829 E.05806
G1 X158.131 Y205.428 E.06015
G1 X158.758 Y206.05 E.05752
G1 X159.359 Y206.741 E.05967
G1 X159.886 Y207.45 E.05752
G1 X160.147 Y207.845 E.03087
G1 X160.6 Y208.623 E.05864
G1 X160.989 Y209.426 E.05808
G1 X161.328 Y210.285 E.06017
G1 X161.59 Y211.129 E.05757
G1 X161.795 Y212.022 E.05967
G1 X161.928 Y212.896 E.05757
G1 X161.998 Y213.825 E.06072
G1 X161.998 Y214.709 E.05757
G1 X161.928 Y215.622 E.05966
G1 X161.796 Y216.497 E.0576
G1 X161.698 Y216.961 E.03087
G1 X161.464 Y217.829 E.05863
G1 X161.17 Y218.663 E.0576
G1 X160.798 Y219.509 E.06017
G1 X160.383 Y220.29 E.05761
G1 X159.901 Y221.051 E.05866
G1 X159.626 Y221.437 E.03087
G1 X159.071 Y222.126 E.05763
G1 X158.445 Y222.795 E.05966
G1 X157.794 Y223.394 E.05764
G1 X157.062 Y223.971 E.06069
G1 X156.328 Y224.465 E.05765
G1 X155.538 Y224.914 E.05916
G1 X154.738 Y225.293 E.05765
G1 X153.868 Y225.627 E.06071
G1 X153.02 Y225.881 E.05767
G1 X152.133 Y226.077 E.05917
G1 X151.249 Y226.202 E.05817
G1 X150.327 Y226.263 E.0602
G1 X149.441 Y226.254 E.05769
G1 X148.528 Y226.177 E.05965
G1 X147.654 Y226.036 E.05771
G1 X147.191 Y225.934 E.03085
G1 X146.331 Y225.693 E.05819
G1 X145.491 Y225.388 E.0582
G1 X145.056 Y225.202 E.03085
G1 X144.269 Y224.811 E.0572
G1 X143.864 Y224.581 E.03039
G1 X143.107 Y224.092 E.05867
G1 X142.401 Y223.556 E.05773
G1 X142.04 Y223.249 E.03085
G1 X141.399 Y222.638 E.05772
G1 X141.075 Y222.292 E.03085
G1 X140.507 Y221.612 E.05776
G1 X139.974 Y220.867 E.05964
G1 X139.514 Y220.109 E.05777
G1 X139.292 Y219.691 E.03084
G1 X138.923 Y218.893 E.05725
G1 X138.752 Y218.459 E.03034
G1 X138.6 Y218.027 E.02989
G1 X138.353 Y217.175 E.05776
G1 X138.166 Y216.286 E.0592
G1 X138.048 Y215.396 E.05842
G1 X138.013 Y214.928 E.03058
G1 X137.996 Y214.047 E.05744
G1 X138.014 Y213.578 E.03057
G1 X138.098 Y212.682 E.05859
G1 X138.248 Y211.805 E.05795
G1 X138.353 Y211.347 E.03058
G1 X138.604 Y210.484 E.05858
G1 X138.915 Y209.65 E.05796
G1 X139.1 Y209.227 E.03006
G1 X139.302 Y208.812 E.03007
G1 X139.735 Y208.035 E.05795
G1 X140.23 Y207.284 E.05859
G1 X140.422 Y207.025 E.02102
G1 X140.888 Y207.297 F30000
;TYPE:Outer wall
G1 F3000
G1 X140.931 Y207.239 E.00467
G1 X141.479 Y206.583 E.05566
G1 X142.081 Y205.964 E.05629
G1 X142.404 Y205.667 E.0286
G1 X143.065 Y205.125 E.05566
G1 X143.775 Y204.627 E.05647
G1 X144.51 Y204.191 E.05566
G1 X144.899 Y203.988 E.02856
G1 X145.296 Y203.8 E.02862
G1 X146.085 Y203.48 E.05546
G1 X146.908 Y203.216 E.0563
G1 X147.333 Y203.106 E.02861
G1 X148.165 Y202.939 E.05528
G1 X148.6 Y202.877 E.02861
G1 X149.461 Y202.804 E.0563
G1 X150.328 Y202.796 E.05648
G1 X151.178 Y202.852 E.05547
G1 X151.614 Y202.905 E.02861
G1 X152.462 Y203.059 E.05612
G1 X152.889 Y203.161 E.02861
G1 X153.705 Y203.406 E.05546
G1 X154.511 Y203.716 E.0563
G1 X154.912 Y203.896 E.02862
G1 X155.671 Y204.291 E.05576
G1 X156.408 Y204.748 E.0565
G1 X157.1 Y205.253 E.05577
G1 X157.435 Y205.527 E.02817
G1 X157.765 Y205.819 E.02871
G1 X158.367 Y206.416 E.05523
G1 X158.941 Y207.077 E.05704
G1 X159.448 Y207.757 E.05523
G1 X159.692 Y208.128 E.0289
G1 X160.127 Y208.875 E.05633
G1 X160.501 Y209.646 E.05579
G1 X160.667 Y210.045 E.02818
G1 X160.821 Y210.458 E.02871
G1 X161.073 Y211.269 E.05527
G1 X161.269 Y212.122 E.05704
G1 X161.396 Y212.961 E.05527
G1 X161.438 Y213.4 E.02871
G1 X161.462 Y213.84 E.02871
G1 X161.462 Y214.689 E.05528
G1 X161.396 Y215.562 E.05703
G1 X161.269 Y216.401 E.0553
G1 X161.177 Y216.836 E.02889
G1 X160.952 Y217.67 E.05633
G1 X160.67 Y218.471 E.05531
G1 X160.503 Y218.871 E.0282
G1 X160.318 Y219.271 E.02871
G1 X159.919 Y220.021 E.05532
G1 X159.457 Y220.752 E.05636
G1 X159.199 Y221.113 E.02889
G1 X158.666 Y221.775 E.05534
G1 X158.068 Y222.414 E.05703
G1 X157.442 Y222.989 E.05535
G1 X157.101 Y223.268 E.02871
G1 X156.75 Y223.535 E.0287
G1 X156.045 Y224.009 E.05536
G1 X155.291 Y224.438 E.05653
G1 X154.523 Y224.802 E.05536
G1 X154.114 Y224.968 E.02871
G1 X153.7 Y225.118 E.02871
G1 X152.886 Y225.363 E.05538
G1 X152.038 Y225.549 E.05654
G1 X151.189 Y225.67 E.05587
G1 X150.757 Y225.706 E.02823
G1 X150.317 Y225.727 E.0287
G1 X149.466 Y225.719 E.0554
G1 X148.594 Y225.645 E.05702
G1 X147.754 Y225.509 E.05541
G1 X147.321 Y225.414 E.02888
G1 X146.495 Y225.183 E.05589
G1 X145.688 Y224.89 E.05589
G1 X145.28 Y224.715 E.02888
G1 X144.521 Y224.338 E.05524
G1 X144.142 Y224.123 E.02842
G1 X143.415 Y223.653 E.05637
G1 X142.737 Y223.138 E.05544
G1 X142.399 Y222.851 E.02888
G1 X141.78 Y222.261 E.05573
G1 X141.477 Y221.937 E.02888
G1 X140.931 Y221.284 E.05546
G1 X140.422 Y220.572 E.05701
G1 X139.98 Y219.844 E.05547
G1 X139.772 Y219.452 E.02888
G1 X139.416 Y218.682 E.05528
G1 X139.254 Y218.272 E.0287
G1 X139.11 Y217.863 E.02825
G1 X138.873 Y217.045 E.05547
G1 X138.694 Y216.195 E.05657
G1 X138.581 Y215.341 E.05611
G1 X138.548 Y214.903 E.02861
G1 X138.532 Y214.052 E.05547
G1 X138.548 Y213.613 E.0286
G1 X138.629 Y212.752 E.05629
G1 X138.773 Y211.91 E.05566
G1 X138.872 Y211.482 E.02861
G1 X139.112 Y210.652 E.05628
G1 X139.411 Y209.852 E.05566
G1 X139.587 Y209.452 E.02842
G1 X139.777 Y209.059 E.02842
G1 X140.193 Y208.313 E.05566
G1 X140.669 Y207.591 E.05629
G1 X140.852 Y207.345 E.02003
G1 E-.56 F1800
;WIPE_START
G1 F3000
G1 X140.931 Y207.239 E-.03162
G1 X141.479 Y206.583 E-.20508
G1 X141.488 Y206.573 E-.00331
;WIPE_END
G1 X163.229 Y203.817 F30000
G1 E.8 F1800
;TYPE:Inner wall
G1 F3000
G1 X163.229 Y224.706 E1.36065
G1 X160.445 Y227.49 E.25645
G1 X139.555 Y227.49 E1.36065
G1 X136.771 Y224.706 E.25645
G1 X136.771 Y203.817 E1.36065
G1 X139.555 Y201.033 E.25645
G1 X160.445 Y201.033 E1.36065
G1 X163.186 Y203.774 E.25254
G1 X163.764 Y203.595 F30000
G1 F3000
G1 X163.764 Y224.928 E1.38955
G1 X160.667 Y228.026 E.28535
G1 X139.333 Y228.026 E1.38955
G1 X136.236 Y224.928 E.28535
G1 X136.236 Y203.595 E1.38955
G1 X139.333 Y200.497 E.28535
G1 X160.667 Y200.497 E1.38955
M73 P1 R18
G1 X163.722 Y203.552 E.28144
G1 X164.3 Y203.373 F30000
;TYPE:Outer wall
G1 F3000
G1 X164.3 Y225.15 E1.41845
G1 X160.888 Y228.561 E.31425
G1 X139.112 Y228.561 E1.41845
G1 X135.7 Y225.15 E.31425
G1 X135.7 Y203.373 E1.41845
G1 X139.112 Y199.961 E.31425
G1 X160.888 Y199.961 E1.41845
G1 X161.091 Y200.164 E.01863
G1 X164.258 Y203.33 E.29171
G1 E-.56 F1800
;WIPE_START
G1 F3000
G1 X164.26 Y204.33 E-.24
;WIPE_END
G1 X159.984 Y201.247 F30000
G1 E.8 F1800
;TYPE:Bottom surface
;WIDTH:0.643408
G1 F6300
G1 X162.773 Y204.036 E.27774
G1 X162.773 Y204.855 E.05766
G1 X159.407 Y201.488 E.33528
G1 X158.588 Y201.488 E.05766
G1 X162.773 Y205.674 E.41682
G1 X162.773 Y206.493 E.05766
G1 X157.769 Y201.488 E.49837
G1 X156.95 Y201.488 E.05766
G1 X162.774 Y207.311 E.57991
G1 X162.774 Y208.13 E.05766
G1 X156.131 Y201.488 E.66145
G1 X155.312 Y201.488 E.05766
G1 X162.774 Y208.949 E.743
G1 X162.774 Y209.768 E.05766
G1 X161.243 Y208.238 E.15238
G1 E-.56 F1800
;WIPE_START
G1 F6300
G1 X161.95 Y208.945 E-.24
;WIPE_END
G1 X156.039 Y203.033 F30000
G1 E.8 F1800
G1 F6300
G1 X154.252 Y201.247 E.17792
G1 E-.56 F1800
;WIPE_START
G1 F6300
G1 X154.959 Y201.954 E-.24
;WIPE_END
G1 X156.686 Y203.312 F30000
G1 E.8 F1800
;TYPE:Gap infill
;WIDTH:0.149744
G1 F3000
G1 X156.53 Y203.188 E.00207
;WIDTH:0.192526
G1 X156.369 Y203.06 E.0032
;WIDTH:0.214528
G1 X156.163 Y202.909 E.00466
G1 E-.64697 F1800
;WIPE_START
G1 F3000
G1 X156.369 Y203.06 E-.15303
;WIPE_END
G1 X162.414 Y210.189 F30000
G1 E.8 F1800
;WIDTH:0.46677
G1 F3000
G1 X161.824 Y209.243 E.05458
G1 E-.56 F1800
;WIPE_START
G1 F3000
G1 X162.353 Y210.091 E-.24
;WIPE_END
G1 X161.367 Y208.114 F30000
G1 E.8 F1800
;WIDTH:0.244794
G1 F3000
G1 X161.229 Y207.936 E.00494
;WIDTH:0.198338
G1 X161.092 Y207.758 E.00367
;WIDTH:0.17511
G1 X160.955 Y207.579 E.00303
G1 E-.66498 F1800
;WIPE_START
G1 F3000
G1 X161.092 Y207.758 E-.13502
;WIPE_END
M73 P1 R17
G1 X162.597 Y210.432 F30000
G1 E.8 F1800
;WIDTH:0.672041
G1 F3000
G1 X162.66 Y210.852 E.03139
;WIDTH:0.644195
G1 X162.682 Y211.048 E.01386
;WIDTH:0.59992
G1 X162.704 Y211.243 E.0128
;WIDTH:0.555645
G1 X162.726 Y211.438 E.01174
;WIDTH:0.51137
G1 X162.749 Y211.634 E.01069
;WIDTH:0.467095
G1 X162.771 Y211.829 E.00963
;WIDTH:0.419825
G1 X162.796 Y212.155 E.01415
;WIDTH:0.371675
G1 X162.819 Y212.468 E.0117
;WIDTH:0.324615
G1 X162.843 Y212.78 E.00991
;WIDTH:0.281499
G1 X162.862 Y213.293 E.01355
;WIDTH:0.243328
G1 X162.881 Y213.797 E.01098
;WIDTH:0.230586
G1 X162.881 Y214.74 E.01905
G1 X162.862 Y215.234 E.01
;WIDTH:0.279855
G1 X162.844 Y215.722 E.0128
;WIDTH:0.322213
G1 X162.82 Y216.043 E.0101
;WIDTH:0.369998
G1 X162.796 Y216.355 E.01164
;WIDTH:0.417126
G1 X162.773 Y216.668 E.01344
;WIDTH:0.459485
G1 X162.754 Y216.852 E.00888
;WIDTH:0.496546
G1 X162.736 Y217.025 E.00915
;WIDTH:0.532513
G1 X162.718 Y217.198 E.00991
;WIDTH:0.552144
G1 X162.716 Y217.212 E.00083
;WIDTH:0.57824
G1 X162.678 Y217.501 E.01824
;WIDTH:0.627143
G1 X162.639 Y217.791 E.01998
;WIDTH:0.676046
G1 X162.601 Y218.08 E.02171
G1 E-.62487 F1800
;WIPE_START
G1 F3000
G1 X162.639 Y217.791 E-.17513
;WIPE_END
G1 X163.015 Y219.47 F30000
G1 E.8 F1800
;TYPE:Bottom surface
;WIDTH:0.615348
G1 F6300
G1 X162.217 Y218.672 E.07555
G1 X162.001 Y219.235 E.04039
G1 X162.774 Y220.008 E.07323
G1 X162.774 Y220.787 E.05221
G1 X161.763 Y219.776 E.09576
G1 X161.503 Y220.295 E.0389
G1 X162.774 Y221.566 E.12043
G1 X162.774 Y222.345 E.05221
G1 X161.231 Y220.803 E.14616
G1 X160.929 Y221.28 E.03784
G1 X162.774 Y223.124 E.17476
G1 X162.774 Y223.904 E.05221
G1 X160.62 Y221.75 E.20406
G1 X160.287 Y222.196 E.0373
G1 X162.691 Y224.6 E.22781
G1 X162.301 Y224.99 E.03692
G1 X159.939 Y222.628 E.2238
G1 X159.573 Y223.04 E.03698
G1 X161.912 Y225.379 E.22162
G1 X161.522 Y225.769 E.03692
G1 X159.196 Y223.443 E.22041
G1 X158.794 Y223.82 E.03693
G1 X161.132 Y226.159 E.22158
G1 X160.743 Y226.548 E.03692
G1 X158.384 Y224.189 E.22351
G1 X157.948 Y224.533 E.03717
G1 X160.353 Y226.938 E.22788
G1 X160.256 Y227.035 E.0092
G1 X159.671 Y227.035 E.03919
G1 X157.504 Y224.867 E.20537
G1 X157.038 Y225.181 E.03761
G1 X158.892 Y227.035 E.17567
G1 X158.113 Y227.035 E.05221
G1 X156.554 Y225.476 E.14771
G1 X156.057 Y225.759 E.03828
G1 X157.334 Y227.035 E.12094
G1 X156.555 Y227.035 E.05221
G1 X155.533 Y226.013 E.09684
G1 X154.995 Y226.255 E.03948
G1 X155.775 Y227.035 E.0739
G1 X154.996 Y227.035 E.05221
G1 X154.246 Y226.285 E.07108
G1 E-.56 F1800
;WIPE_START
G1 F6300
G1 X154.953 Y226.992 E-.24
;WIPE_END
G1 X162.469 Y218.333 F30000
G1 E.8 F1800
;TYPE:Gap infill
;WIDTH:0.124973
G1 F3000
G1 X162.133 Y218.348 E.00248
G1 X162.961 Y218.578 F30000
;WIDTH:0.129822
M73 P2 R17
G1 F3000
G1 X162.185 Y218.295 E.00657
G1 E-.56 F1800
;WIPE_START
G1 F3000
G1 X162.961 Y218.578 E-.24
;WIPE_END
G1 X153.84 Y226.856 F30000
G1 E.8 F1800
;WIDTH:0.687367
G1 F3000
G1 X153.573 Y226.896 E.0205
;WIDTH:0.653812
