; HEADER_BLOCK_START
; generated by OrcaSlicer 2.0.0-beta on 2024-04-17 at 06:35:43
; total layer number: 150
; filament_density: 1.24
; filament_diameter: 1.75
; max_z_height: 30.00
; HEADER_BLOCK_END

; THUMBNAIL_BLOCK_START

;
; THUMBNAIL_BLOCK_END

; external perimeters extrusion width = 0.60mm
; perimeters extrusion width = 0.60mm
; infill extrusion width = 0.70mm
; solid infill extrusion width = 0.84mm
; top infill extrusion width = 0.60mm
; first layer extrusion width = 0.60mm

; external perimeters extrusion width = 0.60mm
; perimeters extrusion width = 0.60mm
; infill extrusion width = 0.70mm
; solid infill extrusion width = 0.84mm
; top infill extrusion width = 0.60mm
; first layer extrusion width = 0.60mm

; EXECUTABLE_BLOCK_START
M73 P0 R29


; Pre-Processed for Cancel-Object support by preprocess_cancellation v0.2.0
; 2 known objects
EXCLUDE_OBJECT_DEFINE NAME=OrcaCube_id_0_copy_0 CENTER=151.379,213.124 POLYGON=[[135.262,199.398],[135.262,229.073],[164.898,229.073],[164.898,199.398]]
EXCLUDE_OBJECT_DEFINE NAME=OrcaPlug_id_0_copy_0 CENTER=150.320,181.816 POLYGON=[[139.884,171.278],[139.884,192.195],[160.804,192.195],[160.804,171.278]]
;TYPE:Custom
;M190 S55
;M109 S215
PRINT_START EXTRUDER=215 BED=55
; You can use following code instead if your PRINT_START macro support Chamber and print area bedmesh
; PRINT_START EXTRUDER=215 BED=55 Chamber=0 PRINT_MIN=135.3,170.828 PRINT_MAX=164.7,228.961
G90
G21
M83 ; use relative distances for extrusion
; filament start gcode
M106 S0
;LAYER_CHANGE
;Z:0.2
;HEIGHT:0.2
;BEFORE_LAYER_CHANGE
;0.2
G92 E0

G1 E-.8 F1800
;AFTER_LAYER_CHANGE
;0.2
;_SET_FAN_SPEED_CHANGING_LAYER
SET_VELOCITY_LIMIT ACCEL=500 ACCEL_TO_DECEL=250
; printing object OrcaCube id:0 copy 0
EXCLUDE_OBJECT_START NAME=OrcaCube_id_0_copy_0
G1 X153.932 Y201.683 F30000
G1 Z.2
G1 E.8 F1800
;TYPE:Inner wall
;WIDTH:0.599999
G1 F3000
G1 X160.11 Y201.683 E.27901
G1 X162.579 Y204.152 E.1577
G1 X162.579 Y210.332 E.27913
G1 X162.413 Y209.816 E.0245
G1 X162.042 Y208.892 E.04497
G1 X161.605 Y208.004 E.04468
G1 X161.079 Y207.117 E.04658
G1 X160.344 Y206.089 E.05709
G1 X159.577 Y205.199 E.05304
G1 X158.976 Y204.604 E.03822
G1 X157.681 Y203.547 E.0755
G1 X156.531 Y202.804 E.06182
G1 X155.542 Y202.3 E.05013
G1 X154.364 Y201.821 E.05745
M73 P0 R28
G1 X153.989 Y201.701 E.01776
G1 E-.56 F1800
;WIPE_START
G1 F3000
G1 X154.989 Y201.698 E-.24
;WIPE_END
G1 X137.421 Y210.323 F30000
G1 E.8 F1800
G1 F3000
G1 X137.421 Y204.152 E.27871
G1 X139.89 Y201.683 E.1577
G1 X146.103 Y201.683 E.2806
G1 X145.432 Y201.893 E.03176
G1 X144.521 Y202.269 E.04453
G1 X143.629 Y202.718 E.0451
G1 X142.783 Y203.227 E.04462
G1 X141.971 Y203.803 E.04491
G1 X141.184 Y204.459 E.04627
G1 X140.281 Y205.354 E.05744
G1 X139.507 Y206.281 E.05454
G1 X138.732 Y207.409 E.06182
G1 X138.214 Y208.351 E.04853
G1 X137.802 Y209.256 E.04493
G1 X137.441 Y210.266 E.04844
G1 E-.56 F1800
;WIPE_START
G1 F3000
G1 X137.438 Y209.266 E-.24
;WIPE_END
G1 X137.421 Y218.2 F30000
G1 E.8 F1800
G1 F3000
G1 X137.507 Y218.475 E.01298
G1 X137.86 Y219.406 E.04497
G1 X138.296 Y220.33 E.04615
G1 X138.981 Y221.508 E.06158
G1 X139.619 Y222.389 E.0491
G1 X140.281 Y223.168 E.04616
G1 X141.261 Y224.14 E.06236
G1 X142.42 Y225.054 E.06664
G1 X143.362 Y225.652 E.0504
G1 X144.578 Y226.284 E.06191
G1 X146.021 Y226.839 E.06979
G1 X139.89 Y226.84 E.27686
G1 X137.421 Y224.371 E.1577
G1 X137.421 Y218.26 E.27598
G1 E-.56 F1800
;WIPE_START
G1 F3000
G1 X137.507 Y218.475 E-.05541
G1 X137.78 Y219.194 E-.18459
;WIPE_END
G1 X153.932 Y226.84 F30000
G1 E.8 F1800
G1 F3000
G1 X154.328 Y226.715 E.01876
G1 X155.26 Y226.351 E.0452
G1 X156.148 Y225.925 E.04448
G1 X157.01 Y225.428 E.04494
G1 X157.824 Y224.873 E.04448
G1 X158.607 Y224.249 E.0452
G1 X159.328 Y223.579 E.04448
G1 X160.008 Y222.845 E.04518
G1 X160.641 Y222.044 E.04613
G1 X161.397 Y220.898 E.06197
G1 X161.895 Y219.95 E.04838
G1 X162.29 Y219.036 E.04496
G1 X162.579 Y218.212 E.03945
G1 X162.579 Y224.371 E.27817
G1 X160.11 Y226.84 E.1577
G1 X153.992 Y226.84 E.2763
G1 E-.56 F1800
;WIPE_START
G1 F3000
G1 X154.328 Y226.715 E-.08607
G1 X154.926 Y226.482 E-.15393
;WIPE_END
G1 X136.856 Y213.816 F30000
G1 E.8 F1800
;WIDTH:0.589114
G1 F3000
G1 X136.856 Y213.544 E.01202
;WIDTH:0.611334
G1 X136.87 Y213.004 E.0249
;WIDTH:0.638801
G1 X136.884 Y212.464 E.0261
G1 X136.864 Y211.199 E.06114
;WIDTH:0.599999
G1 X136.864 Y203.921 E.32869
G1 X139.66 Y201.126 E.17855
G1 X147.061 Y201.126 E.33429
;WIDTH:0.629388
G1 X148.278 Y201.14 E.05785
G1 X149.457 Y201.116 E.05606
;WIDTH:0.581173
G1 X150.46 Y201.116 E.04377
;WIDTH:0.606975
G1 X151.223 Y201.132 E.03489
;WIDTH:0.633759
G1 X151.985 Y201.148 E.03654
G1 X153.188 Y201.126 E.05763
;WIDTH:0.599999
G1 X160.34 Y201.126 E.32301
G1 X163.136 Y203.921 E.17855
G1 X163.136 Y210.914 E.31585
;WIDTH:0.641829
G1 X163.115 Y211.408 E.02397
;WIDTH:0.683659
G1 X163.094 Y211.901 E.02564
G1 X163.112 Y212.383 E.02507
;WIDTH:0.648505
G1 X163.129 Y212.866 E.0237
;WIDTH:0.613351
G1 X163.146 Y213.844 E.04525
;WIDTH:0.581304
G1 X163.145 Y214.806 E.04199
;WIDTH:0.623292
G1 X163.124 Y215.819 E.04766
;WIDTH:0.659128
G1 X163.107 Y216.213 E.01972
;WIDTH:0.694963
G1 X163.091 Y216.607 E.02086
;WIDTH:0.730798
G1 X163.074 Y217.002 E.02201
G1 X163.095 Y217.368 E.02049
;WIDTH:0.687199
G1 X163.115 Y217.735 E.01919
;WIDTH:0.643599
G1 X163.136 Y218.102 E.01789
;WIDTH:0.599999
G1 X163.136 Y224.602 E.29355
G1 X160.34 Y227.397 E.17855
G1 X153.222 Y227.397 E.32147
;WIDTH:0.636512
G1 X152.732 Y227.379 E.02361
;WIDTH:0.673024
G1 X152.242 Y227.361 E.02506
G1 X151.757 Y227.377 E.0248
;WIDTH:0.639951
G1 X151.272 Y227.394 E.0235
;WIDTH:0.606877
G1 X150.299 Y227.409 E.04449
;WIDTH:0.58411
G1 X149.335 Y227.405 E.04226
;WIDTH:0.630864
G1 X148.322 Y227.382 E.04833
G1 X147.056 Y227.397 E.06033
;WIDTH:0.599999
G1 X139.66 Y227.397 E.33405
G1 X136.864 Y224.602 E.17855
G1 X136.864 Y217.363 E.32691
;WIDTH:0.630412
G1 X136.879 Y216.857 E.02414
;WIDTH:0.660824
G1 X136.895 Y216.35 E.02539
G1 X136.875 Y215.669 E.03417
;WIDTH:0.624969
G1 X136.856 Y214.987 E.03218
;WIDTH:0.589114
G1 X136.856 Y213.876 E.04919
G1 E-.56 F1800
;WIPE_START
G1 F3000
G1 X136.856 Y213.544 E-.07956
G1 X136.87 Y213.004 E-.12966
G1 X136.873 Y212.876 E-.03077
;WIPE_END
G1 X163.693 Y224.832 F30000
G1 E.8 F1800
;WIDTH:0.599999
G1 F3000
G1 X160.571 Y227.954 E.19939
G1 X139.429 Y227.954 E.95485
G1 X136.307 Y224.832 E.19939
G1 X136.307 Y203.69 E.95485
G1 X139.429 Y200.568 E.19939
G1 X160.571 Y200.568 E.95485
G1 X163.693 Y203.69 E.19939
G1 X163.693 Y224.772 E.95214
G1 X164.25 Y225.063 F30000
;TYPE:Outer wall
G1 F3000
G1 X160.802 Y228.511 E.22023
G1 X139.198 Y228.511 E.9757
G1 X135.75 Y225.063 E.22023
G1 X135.75 Y203.459 E.9757
G1 X139.198 Y200.011 E.22023
G1 X160.802 Y200.011 E.9757
G1 X164.25 Y203.459 E.22023
G1 X164.25 Y225.003 E.97299
G1 E-.56 F1800
;WIPE_START
G1 F3000
G1 X163.549 Y225.716 E-.24
;WIPE_END
G1 X137.397 Y213.816 F30000
G1 E.8 F1800
;TYPE:Inner wall
;WIDTH:0.583866
G1 F3000
G1 X137.397 Y213.628 E.00824
;WIDTH:0.611334
G1 X137.432 Y213.09 E.02487
;WIDTH:0.638801
G1 X137.468 Y212.551 E.02607
G1 X137.73 Y211.28 E.06267
;WIDTH:0.599999
G1 X137.997 Y210.339 E.0442
G1 X138.324 Y209.451 E.04273
G1 X138.72 Y208.584 E.04304
G1 X139.207 Y207.701 E.04556
G1 X139.966 Y206.596 E.06052
G1 X140.607 Y205.815 E.04565
G1 X141.577 Y204.855 E.06162
G1 X142.325 Y204.234 E.04391
G1 X143.102 Y203.684 E.04302
G1 X143.914 Y203.197 E.04273
G1 X144.769 Y202.768 E.0432
G1 X145.7 Y202.385 E.04547
G1 X147.05 Y201.98 E.06368
;WIDTH:0.629388
G1 X148.377 Y201.724 E.06424
G1 X149.355 Y201.658 E.0466
;WIDTH:0.584109
G1 X150.373 Y201.648 E.04467
;WIDTH:0.613811
G1 X151.097 Y201.694 E.03359
;WIDTH:0.647431
G1 X151.822 Y201.74 E.03557
G1 X153.1 Y202.021 E.06413
;WIDTH:0.599999
G1 X154.089 Y202.311 E.04658
G1 X155.333 Y202.816 E.06059
G1 X156.253 Y203.287 E.04673
G1 X157.378 Y204.014 E.06048
G1 X158.584 Y204.999 E.07031
G1 X159.183 Y205.593 E.0381
G1 X159.891 Y206.413 E.04891
G1 X160.626 Y207.441 E.05709
G1 X161.124 Y208.284 E.04421
G1 X161.541 Y209.135 E.04279
G1 X161.895 Y210.02 E.04307
G1 X162.178 Y210.919 E.04254
;WIDTH:0.632551
G1 X162.303 Y211.382 E.02293
;WIDTH:0.665103
G1 X162.428 Y211.845 E.02419
G1 X162.551 Y212.782 E.04766
;WIDTH:0.620535
G1 X162.608 Y213.74 E.04496
;WIDTH:0.581259
G1 X162.61 Y214.681 E.04109
;WIDTH:0.623292
G1 X162.555 Y215.712 E.04858
;WIDTH:0.659128
G1 X162.499 Y216.15 E.02204
;WIDTH:0.694963
G1 X162.443 Y216.588 E.02332
;WIDTH:0.730798
G1 X162.388 Y217.025 E.02461
G1 X162.283 Y217.337 E.01835
;WIDTH:0.687199
G1 X162.178 Y217.649 E.01719
;WIDTH:0.643599
G1 X162.074 Y217.961 E.01602
;WIDTH:0.599999
G1 X161.764 Y218.851 E.04255
G1 X161.384 Y219.726 E.04307
G1 X160.916 Y220.615 E.04541
G1 X160.176 Y221.737 E.06068
G1 X159.574 Y222.496 E.04377
G1 X158.921 Y223.198 E.04329
G1 X158.23 Y223.839 E.04259
G1 X157.479 Y224.436 E.04331
G1 X156.699 Y224.966 E.04259
G1 X155.873 Y225.441 E.04305
G1 X155.022 Y225.848 E.04259
G1 X154.128 Y226.195 E.04331
G1 X153.226 Y226.47 E.04261
;WIDTH:0.633895
G1 X152.764 Y226.591 E.02285
;WIDTH:0.667791
G1 X152.303 Y226.712 E.02417
G1 X151.831 Y226.767 E.0241
;WIDTH:0.640612
G1 X151.358 Y226.823 E.02305
;WIDTH:0.613433
G1 X150.405 Y226.872 E.04415
;WIDTH:0.581176
G1 X149.462 Y226.868 E.04112
;WIDTH:0.630864
G1 X148.406 Y226.805 E.05046
G1 X147.131 Y226.558 E.06187
;WIDTH:0.599999
G1 X146.132 Y226.285 E.04679
G1 X144.808 Y225.776 E.06409
G1 X143.619 Y225.158 E.06049
G1 X142.742 Y224.598 E.04701
G1 X141.631 Y223.722 E.06388
G1 X140.673 Y222.772 E.06094
G1 X140.046 Y222.032 E.0438
G1 X139.449 Y221.204 E.04612
G1 X138.778 Y220.05 E.06028
G1 X138.366 Y219.172 E.04379
G1 X138.028 Y218.28 E.04308
G1 X137.762 Y217.374 E.04264
;WIDTH:0.630412
G1 X137.639 Y216.881 E.02418
;WIDTH:0.660824
G1 X137.517 Y216.389 E.02543
G1 X137.457 Y215.683 E.0355
;WIDTH:0.622331
G1 X137.397 Y214.977 E.03329
;WIDTH:0.583866
G1 X137.397 Y213.876 E.04827
G1 X137.946 Y213.816 F30000
;WIDTH:0.599999
G1 F3000
G1 X137.946 Y213.628 E.00848
G1 X138.033 Y212.668 E.04354
G1 X138.277 Y211.385 E.059
G1 X138.532 Y210.494 E.04183
G1 X138.846 Y209.646 E.04084
G1 X139.226 Y208.818 E.04115
G1 X139.682 Y207.993 E.04257
G1 X140.425 Y206.912 E.05926
G1 X141.025 Y206.185 E.04257
G1 X141.969 Y205.251 E.05997
G1 X142.678 Y204.665 E.04155
G1 X143.422 Y204.14 E.04113
G1 X144.198 Y203.676 E.04084
G1 X145.016 Y203.267 E.04131
G1 X145.887 Y202.911 E.04248
G1 X147.189 Y202.52 E.0614
G1 X148.479 Y202.287 E.05919
G1 X149.401 Y202.205 E.04183
G1 X150.351 Y202.194 E.04288
G1 X151.697 Y202.308 E.06102
G1 X152.99 Y202.567 E.05957
G1 X153.907 Y202.838 E.04315
G1 X155.123 Y203.332 E.0593
G1 X155.975 Y203.771 E.04329
G1 X157.076 Y204.482 E.05918
G1 X157.874 Y205.13 E.04644
G1 X158.786 Y205.984 E.05643
G1 X159.438 Y206.737 E.04495
G1 X160.173 Y207.765 E.05709
G1 X160.642 Y208.564 E.04185
G1 X161.039 Y209.378 E.0409
G1 X161.376 Y210.225 E.04118
G1 X161.646 Y211.084 E.04065
G1 X161.853 Y211.977 E.0414
M73 P1 R28
G1 X161.99 Y212.867 E.04066
G1 X162.061 Y213.781 E.04143
G1 X162.064 Y214.681 E.04066
G1 X161.994 Y215.634 E.04313
G1 X161.774 Y216.92 E.05894
G1 X161.536 Y217.816 E.04186
G1 X161.239 Y218.666 E.04067
G1 X160.874 Y219.502 E.04118
G1 X160.435 Y220.332 E.04241
G1 X159.711 Y221.43 E.05942
G1 X159.14 Y222.147 E.0414
G1 X158.515 Y222.818 E.0414
G1 X157.853 Y223.429 E.0407
G1 X157.134 Y223.999 E.04141
G1 X156.388 Y224.504 E.0407
G1 X155.597 Y224.957 E.04116
G1 X154.784 Y225.344 E.0407
G1 X153.928 Y225.675 E.04142
G1 X153.066 Y225.937 E.04071
G1 X152.176 Y226.135 E.04117
G1 X151.279 Y226.265 E.04094
G1 X150.369 Y226.327 E.04119
G1 X149.468 Y226.321 E.04071
G1 X148.516 Y226.242 E.04313
G1 X147.231 Y226.01 E.05899
G1 X146.305 Y225.755 E.04335
G1 X145.037 Y225.267 E.06137
G1 X143.877 Y224.663 E.05907
G1 X143.064 Y224.143 E.04357
G1 X142.001 Y223.304 E.06116
G1 X141.065 Y222.377 E.05952
G1 X140.474 Y221.675 E.04144
G1 X139.916 Y220.9 E.04312
G1 X139.26 Y219.77 E.05902
G1 X138.872 Y218.938 E.04144
G1 X138.55 Y218.085 E.04119
G1 X138.297 Y217.219 E.04075
G1 X138.099 Y216.289 E.04296
G1 X137.946 Y214.941 E.06127
G1 X137.946 Y213.876 E.04808
G1 X138.503 Y213.816 F30000
;TYPE:Outer wall
G1 F3000
G1 X138.503 Y213.628 E.00848
G1 X138.585 Y212.745 E.04005
G1 X138.824 Y211.489 E.05775
G1 X139.067 Y210.649 E.03947
G1 X139.368 Y209.841 E.03895
G1 X139.731 Y209.052 E.03926
G1 X140.156 Y208.286 E.03953
G1 X140.884 Y207.227 E.05804
G1 X141.444 Y206.555 E.03952
G1 X142.361 Y205.646 E.05829
G1 X143.031 Y205.095 E.03918
G1 X143.742 Y204.596 E.03924
G1 X144.483 Y204.155 E.03895
G1 X145.264 Y203.766 E.03941
G1 X146.073 Y203.437 E.03944
G1 X147.319 Y203.063 E.05875
G1 X148.578 Y202.835 E.05777
G1 X149.449 Y202.76 E.03947
G1 X150.331 Y202.751 E.03984
G1 X151.618 Y202.86 E.05837
G1 X152.881 Y203.113 E.05815
G1 X153.723 Y203.365 E.03967
G1 X154.914 Y203.848 E.05805
G1 X155.696 Y204.254 E.03981
G1 X156.773 Y204.95 E.05793
G1 X157.521 Y205.561 E.0436
G1 X158.394 Y206.38 E.05408
G1 X158.974 Y207.046 E.03988
G1 X159.72 Y208.089 E.0579
G1 X160.161 Y208.844 E.03949
G1 X160.538 Y209.621 E.039
G1 X160.858 Y210.43 E.03928
G1 X161.113 Y211.249 E.03876
G1 X161.31 Y212.102 E.03951
G1 X161.44 Y212.95 E.03877
G1 X161.506 Y213.823 E.03953
G1 X161.507 Y214.681 E.03877
G1 X161.441 Y215.567 E.04009
G1 X161.225 Y216.826 E.05772
G1 X160.998 Y217.671 E.03949
G1 X160.713 Y218.481 E.03879
G1 X160.364 Y219.278 E.03929
G1 X159.955 Y220.048 E.03938
G1 X159.246 Y221.123 E.05819
G1 X158.705 Y221.798 E.03904
G1 X158.108 Y222.437 E.0395
G1 X157.476 Y223.019 E.0388
G1 X156.789 Y223.561 E.03952
G1 X156.077 Y224.042 E.03881
G1 X155.322 Y224.472 E.03927
G1 X154.545 Y224.841 E.03881
G1 X153.729 Y225.155 E.03952
G1 X152.906 Y225.403 E.03882
G1 X152.056 Y225.591 E.03928
G1 X151.201 Y225.713 E.03905
G1 X150.332 Y225.771 E.0393
G1 X149.473 Y225.764 E.03882
G1 X148.588 Y225.689 E.04009
G1 X147.33 Y225.462 E.05776
G1 X146.479 Y225.225 E.03987
G1 X145.266 Y224.758 E.0587
G1 X144.134 Y224.169 E.05765
G1 X143.387 Y223.688 E.04009
G1 X142.371 Y222.886 E.05849
G1 X141.457 Y221.981 E.05809
G1 X140.901 Y221.318 E.03908
G1 X140.384 Y220.596 E.04008
G1 X139.741 Y219.49 E.05779
G1 X139.377 Y218.705 E.03908
G1 X139.072 Y217.89 E.0393
G1 X138.832 Y217.064 E.03886
G1 X138.649 Y216.2 E.03988
G1 X138.503 Y214.909 E.05866
G1 X138.503 Y213.876 E.04666
G1 E-.56 F1800
;WIPE_START
G1 F3000
G1 X138.503 Y213.628 E-.05946
G1 X138.573 Y212.879 E-.18054
;WIPE_END
G1 X137.644 Y221.14 F30000
G1 E.8 F1800
;TYPE:Bottom surface
;WIDTH:0.684929
G1 F6300
G1 X142.87 Y226.367 E.38469
G1 X141.962 Y226.367 E.04726
G1 X137.895 Y222.299 E.29941
G1 X137.895 Y223.207 E.04726
G1 X141.054 Y226.367 E.23258
G1 X140.146 Y226.367 E.04726
G1 X137.644 Y223.864 E.1842
G1 E-.56 F1800
;WIPE_START
G1 F6300
G1 X138.351 Y224.571 E-.24
;WIPE_END
G1 X143.183 Y226.562 F30000
G1 E.8 F1800
;TYPE:Gap infill
;WIDTH:0.451683
G1 F3000
G1 X143.288 Y226.479 E.00443
;WIDTH:0.487283
G1 X143.392 Y226.396 E.00481
;WIDTH:0.522882
G1 X143.497 Y226.313 E.0052
;WIDTH:0.516244
G1 X143.456 Y226.264 E.00244
;WIDTH:0.467369
G1 X143.414 Y226.216 E.00219
;WIDTH:0.418494
G1 X143.373 Y226.167 E.00194
;WIDTH:0.374619
G1 X143.272 Y226.094 E.00335
;WIDTH:0.333802
G1 X143.161 Y226.013 E.00324
;WIDTH:0.292626
G1 X143.012 Y225.894 E.00387
;WIDTH:0.251992
G1 X142.863 Y225.774 E.00324
;WIDTH:0.211357
G1 X142.714 Y225.655 E.00261
;WIDTH:0.170722
G1 X142.565 Y225.536 E.00198
;WIDTH:0.150405
G1 X142.416 Y225.416 E.00166
G1 E-.68542 F1800
;WIPE_START
G1 F3000
G1 X142.565 Y225.536 E-.11458
;WIPE_END
G1 X138.864 Y221.863 F30000
G1 E.8 F1800
;WIDTH:0.123289
G1 F3000
G1 X138.753 Y221.731 E.00112
;WIDTH:0.150773
G1 X138.639 Y221.595 E.00156
;WIDTH:0.187892
G1 X138.534 Y221.458 E.00203
;WIDTH:0.233523
G1 X138.43 Y221.321 E.00266
;WIDTH:0.279154
G1 X138.325 Y221.184 E.0033
;WIDTH:0.324785
G1 X138.22 Y221.047 E.00394
;WIDTH:0.370415
G1 X138.116 Y220.91 E.00457
;WIDTH:0.416046
G1 X138.011 Y220.773 E.00521
;WIDTH:0.454337
G1 X137.97 Y220.733 E.00193
;WIDTH:0.485289
G1 X137.929 Y220.692 E.00208
;WIDTH:0.479333
G1 X137.891 Y220.737 E.00208
;WIDTH:0.436469
G1 X137.852 Y220.781 E.00187
;WIDTH:0.393605
