; HEADER_BLOCK_START
; generated by OrcaSlicer 2.0.0-beta on 2024-04-16 at 22:26:32
; total layer number: 0
; filament_density: 1.24
; filament_diameter: 1.75
; max_z_height: 0.25
; HEADER_BLOCK_END

; THUMBNAIL_BLOCK_START

;
; THUMBNAIL_BLOCK_END

; external perimeters extrusion width = 0.60mm
; perimeters extrusion width = 0.60mm
; infill extrusion width = 0.70mm
; solid infill extrusion width = 0.84mm
; top infill extrusion width = 0.60mm
; first layer extrusion width = 0.84mm

; EXECUTABLE_BLOCK_START
M73 P0 R6
;TYPE:Custom
;M190 S55
;M109 S215
PRINT_START EXTRUDER=215 BED=55
; You can use following code instead if your PRINT_START macro support Chamber and print area bedmesh
; PRINT_START EXTRUDER=215 BED=55 Chamber=0 PRINT_MIN=25,25 PRINT_MAX=275,375
G90
G21
M83 ; use relative distances for extrusion
; filament start gcode
SET_VELOCITY_LIMIT ACCEL=5000 ACCEL_TO_DECEL=2500
SET_VELOCITY_LIMIT SQUARE_CORNER_VELOCITY=9
G1 Z.25 F30000
G1 E-.8 F1800
G1 X100 Y289.25 F30000
G1 E.8 F1800
G1 F720
G1 X100 Y110.75 E12.83156
SET_PRESSURE_ADVANCE ADVANCE=0; Override pressure advance value
M73 P4 R5
G1 E-.8 F1800
G1 X100 Y110.75 F30000
G1 E.8 F1800
G1 F720
G1 X120 Y110.75 E1.19809
G1 F7200
G1 X160 Y110.75 E2.39618
G1 F720
G1 X180 Y110.75 E1.19809
SET_PRESSURE_ADVANCE ADVANCE=0.002; Override pressure advance value
M73 P5 R5
G1 E-.8 F1800
G1 X100 Y114.25 F30000
G1 E.8 F1800
G1 F720
G1 X120 Y114.25 E1.19809
G1 F7200
G1 X160 Y114.25 E2.39618
G1 F720
G1 X180 Y114.25 E1.19809
SET_PRESSURE_ADVANCE ADVANCE=0.004; Override pressure advance value
M73 P6 R5
G1 E-.8 F1800
G1 X100 Y117.75 F30000
G1 E.8 F1800
G1 F720
G1 X120 Y117.75 E1.19809
G1 F7200
G1 X160 Y117.75 E2.39618
G1 F720
G1 X180 Y117.75 E1.19809
SET_PRESSURE_ADVANCE ADVANCE=0.006; Override pressure advance value
M73 P7 R5
G1 E-.8 F1800
G1 X100 Y121.25 F30000
G1 E.8 F1800
G1 F720
G1 X120 Y121.25 E1.19809
G1 F7200
G1 X160 Y121.25 E2.39618
M73 P8 R5
G1 F720
G1 X180 Y121.25 E1.19809
SET_PRESSURE_ADVANCE ADVANCE=0.008; Override pressure advance value
G1 E-.8 F1800
G1 X100 Y124.75 F30000
G1 E.8 F1800
G1 F720
G1 X120 Y124.75 E1.19809
M73 P9 R5
G1 F7200
G1 X160 Y124.75 E2.39618
G1 F720
G1 X180 Y124.75 E1.19809
SET_PRESSURE_ADVANCE ADVANCE=0.01; Override pressure advance value
G1 E-.8 F1800
G1 X100 Y128.25 F30000
G1 E.8 F1800
G1 F720
G1 X120 Y128.25 E1.19809
M73 P10 R5
G1 F7200
G1 X160 Y128.25 E2.39618
G1 F720
G1 X180 Y128.25 E1.19809
SET_PRESSURE_ADVANCE ADVANCE=0.012; Override pressure advance value
G1 E-.8 F1800
G1 X100 Y131.75 F30000
G1 E.8 F1800
G1 F720
G1 X120 Y131.75 E1.19809
M73 P11 R5
G1 F7200
G1 X160 Y131.75 E2.39618
G1 F720
G1 X180 Y131.75 E1.19809
SET_PRESSURE_ADVANCE ADVANCE=0.014; Override pressure advance value
G1 E-.8 F1800
G1 X100 Y135.25 F30000
G1 E.8 F1800
G1 F720
G1 X120 Y135.25 E1.19809
M73 P12 R5
G1 F7200
G1 X160 Y135.25 E2.39618
G1 F720
G1 X180 Y135.25 E1.19809
SET_PRESSURE_ADVANCE ADVANCE=0.016; Override pressure advance value
G1 E-.8 F1800
G1 X100 Y138.75 F30000
G1 E.8 F1800
G1 F720
G1 X120 Y138.75 E1.19809
M73 P13 R5
G1 F7200
G1 X160 Y138.75 E2.39618
G1 F720
G1 X180 Y138.75 E1.19809
SET_PRESSURE_ADVANCE ADVANCE=0.018; Override pressure advance value
G1 E-.8 F1800
G1 X100 Y142.25 F30000
M73 P14 R5
G1 E.8 F1800
G1 F720
G1 X120 Y142.25 E1.19809
G1 F7200
G1 X160 Y142.25 E2.39618
G1 F720
G1 X180 Y142.25 E1.19809
SET_PRESSURE_ADVANCE ADVANCE=0.02; Override pressure advance value
M73 P15 R5
G1 E-.8 F1800
G1 X100 Y145.75 F30000
G1 E.8 F1800
G1 F720
G1 X120 Y145.75 E1.19809
G1 F7200
G1 X160 Y145.75 E2.39618
G1 F720
G1 X180 Y145.75 E1.19809
SET_PRESSURE_ADVANCE ADVANCE=0.022; Override pressure advance value
M73 P16 R5
G1 E-.8 F1800
G1 X100 Y149.25 F30000
G1 E.8 F1800
G1 F720
G1 X120 Y149.25 E1.19809
G1 F7200
G1 X160 Y149.25 E2.39618
G1 F720
G1 X180 Y149.25 E1.19809
SET_PRESSURE_ADVANCE ADVANCE=0.024; Override pressure advance value
M73 P17 R5
G1 E-.8 F1800
G1 X100 Y152.75 F30000
G1 E.8 F1800
G1 F720
G1 X120 Y152.75 E1.19809
G1 F7200
G1 X160 Y152.75 E2.39618
G1 F720
G1 X180 Y152.75 E1.19809
SET_PRESSURE_ADVANCE ADVANCE=0.026; Override pressure advance value
M73 P18 R5
G1 E-.8 F1800
G1 X100 Y156.25 F30000
G1 E.8 F1800
G1 F720
G1 X120 Y156.25 E1.19809
G1 F7200
G1 X160 Y156.25 E2.39618
G1 F720
G1 X180 Y156.25 E1.19809
SET_PRESSURE_ADVANCE ADVANCE=0.028; Override pressure advance value
M73 P19 R4
G1 E-.8 F1800
G1 X100 Y159.75 F30000
G1 E.8 F1800
G1 F720
G1 X120 Y159.75 E1.19809
G1 F7200
G1 X160 Y159.75 E2.39618
M73 P20 R4
G1 F720
G1 X180 Y159.75 E1.19809
SET_PRESSURE_ADVANCE ADVANCE=0.03; Override pressure advance value
G1 E-.8 F1800
G1 X100 Y163.25 F30000
G1 E.8 F1800
G1 F720
G1 X120 Y163.25 E1.19809
M73 P21 R4
G1 F7200
G1 X160 Y163.25 E2.39618
G1 F720
G1 X180 Y163.25 E1.19809
SET_PRESSURE_ADVANCE ADVANCE=0.032; Override pressure advance value
G1 E-.8 F1800
G1 X100 Y166.75 F30000
G1 E.8 F1800
G1 F720
G1 X120 Y166.75 E1.19809
M73 P22 R4
G1 F7200
G1 X160 Y166.75 E2.39618
G1 F720
G1 X180 Y166.75 E1.19809
SET_PRESSURE_ADVANCE ADVANCE=0.034; Override pressure advance value
G1 E-.8 F1800
G1 X100 Y170.25 F30000
G1 E.8 F1800
G1 F720
G1 X120 Y170.25 E1.19809
M73 P23 R4
G1 F7200
G1 X160 Y170.25 E2.39618
G1 F720
G1 X180 Y170.25 E1.19809
SET_PRESSURE_ADVANCE ADVANCE=0.036; Override pressure advance value
G1 E-.8 F1800
G1 X100 Y173.75 F30000
G1 E.8 F1800
G1 F720
G1 X120 Y173.75 E1.19809
M73 P24 R4
G1 F7200
G1 X160 Y173.75 E2.39618
G1 F720
G1 X180 Y173.75 E1.19809
SET_PRESSURE_ADVANCE ADVANCE=0.038; Override pressure advance value
G1 E-.8 F1800
G1 X100 Y177.25 F30000
G1 E.8 F1800
G1 F720
G1 X120 Y177.25 E1.19809
M73 P25 R4
G1 F7200
G1 X160 Y177.25 E2.39618
G1 F720
G1 X180 Y177.25 E1.19809
SET_PRESSURE_ADVANCE ADVANCE=0.04; Override pressure advance value
G1 E-.8 F1800
G1 X100 Y180.75 F30000
G1 E.8 F1800
M73 P26 R4
G1 F720
G1 X120 Y180.75 E1.19809
G1 F7200
G1 X160 Y180.75 E2.39618
G1 F720
G1 X180 Y180.75 E1.19809
SET_PRESSURE_ADVANCE ADVANCE=0.042; Override pressure advance value
M73 P27 R4
G1 E-.8 F1800
G1 X100 Y184.25 F30000
G1 E.8 F1800
G1 F720
G1 X120 Y184.25 E1.19809
G1 F7200
G1 X160 Y184.25 E2.39618
G1 F720
G1 X180 Y184.25 E1.19809
SET_PRESSURE_ADVANCE ADVANCE=0.044; Override pressure advance value
M73 P28 R4
G1 E-.8 F1800
G1 X100 Y187.75 F30000
G1 E.8 F1800
G1 F720
G1 X120 Y187.75 E1.19809
G1 F7200
G1 X160 Y187.75 E2.39618
G1 F720
G1 X180 Y187.75 E1.19809
SET_PRESSURE_ADVANCE ADVANCE=0.046; Override pressure advance value
M73 P29 R4
G1 E-.8 F1800
G1 X100 Y191.25 F30000
G1 E.8 F1800
G1 F720
G1 X120 Y191.25 E1.19809
G1 F7200
G1 X160 Y191.25 E2.39618
G1 F720
G1 X180 Y191.25 E1.19809
SET_PRESSURE_ADVANCE ADVANCE=0.048; Override pressure advance value
M73 P30 R4
G1 E-.8 F1800
G1 X100 Y194.75 F30000
G1 E.8 F1800
G1 F720
G1 X120 Y194.75 E1.19809
G1 F7200
G1 X160 Y194.75 E2.39618
G1 F720
G1 X180 Y194.75 E1.19809
SET_PRESSURE_ADVANCE ADVANCE=0.05; Override pressure advance value
M73 P31 R4
G1 E-.8 F1800
G1 X100 Y198.25 F30000
G1 E.8 F1800
G1 F720
G1 X120 Y198.25 E1.19809
G1 F7200
G1 X160 Y198.25 E2.39618
G1 F720
G1 X180 Y198.25 E1.19809
SET_PRESSURE_ADVANCE ADVANCE=0.052; Override pressure advance value
M73 P32 R4
G1 E-.8 F1800
G1 X100 Y201.75 F30000
G1 E.8 F1800
G1 F720
G1 X120 Y201.75 E1.19809
G1 F7200
G1 X160 Y201.75 E2.39618
M73 P33 R4
G1 F720
G1 X180 Y201.75 E1.19809
SET_PRESSURE_ADVANCE ADVANCE=0.054; Override pressure advance value
G1 E-.8 F1800
G1 X100 Y205.25 F30000
G1 E.8 F1800
G1 F720
G1 X120 Y205.25 E1.19809
M73 P34 R4
G1 F7200
G1 X160 Y205.25 E2.39618
G1 F720
G1 X180 Y205.25 E1.19809
SET_PRESSURE_ADVANCE ADVANCE=0.056; Override pressure advance value
G1 E-.8 F1800
G1 X100 Y208.75 F30000
G1 E.8 F1800
G1 F720
G1 X120 Y208.75 E1.19809
M73 P35 R4
G1 F7200
G1 X160 Y208.75 E2.39618
M73 P35 R3
G1 F720
G1 X180 Y208.75 E1.19809
SET_PRESSURE_ADVANCE ADVANCE=0.058; Override pressure advance value
G1 E-.8 F1800
G1 X100 Y212.25 F30000
G1 E.8 F1800
G1 F720
G1 X120 Y212.25 E1.19809
M73 P36 R3
G1 F7200
G1 X160 Y212.25 E2.39618
G1 F720
G1 X180 Y212.25 E1.19809
SET_PRESSURE_ADVANCE ADVANCE=0.06; Override pressure advance value
G1 E-.8 F1800
G1 X100 Y215.75 F30000
G1 E.8 F1800
G1 F720
G1 X120 Y215.75 E1.19809
M73 P37 R3
G1 F7200
G1 X160 Y215.75 E2.39618
G1 F720
G1 X180 Y215.75 E1.19809
SET_PRESSURE_ADVANCE ADVANCE=0.062; Override pressure advance value
G1 E-.8 F1800
G1 X100 Y219.25 F30000
G1 E.8 F1800
G1 F720
G1 X120 Y219.25 E1.19809
M73 P38 R3
G1 F7200
G1 X160 Y219.25 E2.39618
G1 F720
G1 X180 Y219.25 E1.19809
SET_PRESSURE_ADVANCE ADVANCE=0.064; Override pressure advance value
G1 E-.8 F1800
G1 X100 Y222.75 F30000
M73 P39 R3
G1 E.8 F1800
G1 F720
G1 X120 Y222.75 E1.19809
G1 F7200
G1 X160 Y222.75 E2.39618
G1 F720
G1 X180 Y222.75 E1.19809
SET_PRESSURE_ADVANCE ADVANCE=0.066; Override pressure advance value
M73 P40 R3
G1 E-.8 F1800
G1 X100 Y226.25 F30000
G1 E.8 F1800
G1 F720
G1 X120 Y226.25 E1.19809
G1 F7200
G1 X160 Y226.25 E2.39618
G1 F720
G1 X180 Y226.25 E1.19809
SET_PRESSURE_ADVANCE ADVANCE=0.068; Override pressure advance value
M73 P41 R3
G1 E-.8 F1800
G1 X100 Y229.75 F30000
G1 E.8 F1800
G1 F720
G1 X120 Y229.75 E1.19809
G1 F7200
G1 X160 Y229.75 E2.39618
G1 F720
G1 X180 Y229.75 E1.19809
SET_PRESSURE_ADVANCE ADVANCE=0.07; Override pressure advance value
M73 P42 R3
G1 E-.8 F1800
G1 X100 Y233.25 F30000
G1 E.8 F1800
G1 F720
G1 X120 Y233.25 E1.19809
G1 F7200
G1 X160 Y233.25 E2.39618
G1 F720
G1 X180 Y233.25 E1.19809
SET_PRESSURE_ADVANCE ADVANCE=0.072; Override pressure advance value
M73 P43 R3
G1 E-.8 F1800
G1 X100 Y236.75 F30000
G1 E.8 F1800
G1 F720
G1 X120 Y236.75 E1.19809
G1 F7200
G1 X160 Y236.75 E2.39618
G1 F720
G1 X180 Y236.75 E1.19809
SET_PRESSURE_ADVANCE ADVANCE=0.074; Override pressure advance value
M73 P44 R3
G1 E-.8 F1800
G1 X100 Y240.25 F30000
G1 E.8 F1800
G1 F720
G1 X120 Y240.25 E1.19809
G1 F7200
G1 X160 Y240.25 E2.39618
M73 P45 R3
G1 F720
G1 X180 Y240.25 E1.19809
SET_PRESSURE_ADVANCE ADVANCE=0.076; Override pressure advance value
G1 E-.8 F1800
G1 X100 Y243.75 F30000
G1 E.8 F1800
G1 F720
G1 X120 Y243.75 E1.19809
M73 P46 R3
G1 F7200
G1 X160 Y243.75 E2.39618
G1 F720
G1 X180 Y243.75 E1.19809
SET_PRESSURE_ADVANCE ADVANCE=0.078; Override pressure advance value
G1 E-.8 F1800
G1 X100 Y247.25 F30000
G1 E.8 F1800
G1 F720
G1 X120 Y247.25 E1.19809
M73 P47 R3
G1 F7200
G1 X160 Y247.25 E2.39618
G1 F720
G1 X180 Y247.25 E1.19809
SET_PRESSURE_ADVANCE ADVANCE=0.08; Override pressure advance value
G1 E-.8 F1800
G1 X100 Y250.75 F30000
G1 E.8 F1800
G1 F720
G1 X120 Y250.75 E1.19809
M73 P48 R3
G1 F7200
G1 X160 Y250.75 E2.39618
G1 F720
G1 X180 Y250.75 E1.19809
SET_PRESSURE_ADVANCE ADVANCE=0.082; Override pressure advance value
G1 E-.8 F1800
G1 X100 Y254.25 F30000
G1 E.8 F1800
G1 F720
G1 X120 Y254.25 E1.19809
M73 P49 R3
G1 F7200
G1 X160 Y254.25 E2.39618
G1 F720
G1 X180 Y254.25 E1.19809
SET_PRESSURE_ADVANCE ADVANCE=0.084; Override pressure advance value
G1 E-.8 F1800
G1 X100 Y257.75 F30000
G1 E.8 F1800
G1 F720
G1 X120 Y257.75 E1.19809
M73 P50 R3
G1 F7200
G1 X160 Y257.75 E2.39618
G1 F720
G1 X180 Y257.75 E1.19809
SET_PRESSURE_ADVANCE ADVANCE=0.086; Override pressure advance value
G1 E-.8 F1800
G1 X100 Y261.25 F30000
G1 E.8 F1800
M73 P51 R3
G1 F720
G1 X120 Y261.25 E1.19809
M73 P51 R2
G1 F7200
G1 X160 Y261.25 E2.39618
G1 F720
G1 X180 Y261.25 E1.19809
SET_PRESSURE_ADVANCE ADVANCE=0.088; Override pressure advance value
M73 P52 R2
G1 E-.8 F1800
G1 X100 Y264.75 F30000
G1 E.8 F1800
G1 F720
G1 X120 Y264.75 E1.19809
G1 F7200
G1 X160 Y264.75 E2.39618
G1 F720
G1 X180 Y264.75 E1.19809
SET_PRESSURE_ADVANCE ADVANCE=0.09; Override pressure advance value
M73 P53 R2
G1 E-.8 F1800
G1 X100 Y268.25 F30000
G1 E.8 F1800
G1 F720
G1 X120 Y268.25 E1.19809
G1 F7200
G1 X160 Y268.25 E2.39618
G1 F720
G1 X180 Y268.25 E1.19809
SET_PRESSURE_ADVANCE ADVANCE=0.092; Override pressure advance value
M73 P54 R2
G1 E-.8 F1800
G1 X100 Y271.75 F30000
G1 E.8 F1800
G1 F720
G1 X120 Y271.75 E1.19809
G1 F7200
G1 X160 Y271.75 E2.39618
G1 F720
G1 X180 Y271.75 E1.19809
SET_PRESSURE_ADVANCE ADVANCE=0.094; Override pressure advance value
M73 P55 R2
G1 E-.8 F1800
G1 X100 Y275.25 F30000
G1 E.8 F1800
G1 F720
G1 X120 Y275.25 E1.19809
G1 F7200
G1 X160 Y275.25 E2.39618
G1 F720
G1 X180 Y275.25 E1.19809
SET_PRESSURE_ADVANCE ADVANCE=0.096; Override pressure advance value
M73 P56 R2
G1 E-.8 F1800
G1 X100 Y278.75 F30000
G1 E.8 F1800
G1 F720
G1 X120 Y278.75 E1.19809
G1 F7200
G1 X160 Y278.75 E2.39618
G1 F720
G1 X180 Y278.75 E1.19809
SET_PRESSURE_ADVANCE ADVANCE=0.098; Override pressure advance value
M73 P57 R2
G1 E-.8 F1800
G1 X100 Y282.25 F30000
G1 E.8 F1800
G1 F720
G1 X120 Y282.25 E1.19809
G1 F7200
G1 X160 Y282.25 E2.39618
M73 P58 R2
G1 F720
G1 X180 Y282.25 E1.19809
SET_PRESSURE_ADVANCE ADVANCE=0.1; Override pressure advance value
G1 E-.8 F1800
G1 X100 Y285.75 F30000
G1 E.8 F1800
G1 F720
G1 X120 Y285.75 E1.19809
M73 P59 R2
G1 F7200
G1 X160 Y285.75 E2.39618
G1 F720
G1 X180 Y285.75 E1.19809
SET_PRESSURE_ADVANCE ADVANCE=0; Override pressure advance value
G1 E-.8 F1800
G1 X180 Y107.25 F30000
G1 E.8 F1800
G1 F7200
G1 X180 Y289.25 E10.63007
M73 P60 R2
G1 F7200
G1 X204 Y289.25 E1.40177
G1 F7200
G1 X204 Y107.25 E10.63007
G1 F7200
G1 X180 Y107.25 E1.40177
G1 E-.8 F1800
G1 X180.576 Y107.826 F30000
G1 E.8 F1800
G1 F7200
G1 X180.576 Y288.674 E10.56274
M73 P61 R2
G1 F7200
G1 X203.424 Y288.674 E1.33444
G1 F7200
G1 X203.424 Y107.826 E10.56274
G1 F7200
G1 X180.576 Y107.826 E1.33444
G1 E-.8 F1800
G1 X180.996 Y108.246 F30000
G1 E.8 F1800
G1 E-.8 F1800
G1 X181.811 Y108.246 F30000
G1 E.8 F1800
G1 F7200
G1 X180.996 Y109.061 E.06733
G1 E-.8 F1800
G1 X180.996 Y109.877 F30000
G1 E.8 F1800
G1 F7200
G1 X182.627 Y108.246 E.13465
G1 E-.8 F1800
G1 X183.442 Y108.246 F30000
G1 E.8 F1800
G1 F7200
G1 X180.996 Y110.692 E.20198
G1 E-.8 F1800
G1 X180.996 Y111.507 F30000
G1 E.8 F1800
G1 F7200
G1 X184.257 Y108.246 E.2693
G1 E-.8 F1800
G1 X185.072 Y108.246 F30000
G1 E.8 F1800
G1 F7200
G1 X180.996 Y112.322 E.33663
G1 E-.8 F1800
G1 X180.996 Y113.137 F30000
G1 E.8 F1800
G1 F7200
G1 X185.887 Y108.246 E.40395
G1 E-.8 F1800
G1 X186.702 Y108.246 F30000
G1 E.8 F1800
G1 F7200
G1 X180.996 Y113.952 E.47128
G1 E-.8 F1800
M73 P62 R2
G1 X180.996 Y114.767 F30000
G1 E.8 F1800
G1 F7200
G1 X187.517 Y108.246 E.53861
G1 E-.8 F1800
G1 X188.332 Y108.246 F30000
G1 E.8 F1800
G1 F7200
G1 X180.996 Y115.582 E.60593
G1 E-.8 F1800
G1 X180.996 Y116.397 F30000
G1 E.8 F1800
G1 F7200
G1 X189.147 Y108.246 E.67326
G1 E-.8 F1800
G1 X189.962 Y108.246 F30000
G1 E.8 F1800
G1 F7200
G1 X180.996 Y117.212 E.74058
G1 E-.8 F1800
G1 X180.996 Y118.027 F30000
G1 E.8 F1800
G1 F7200
G1 X190.777 Y108.246 E.80791
G1 E-.8 F1800
G1 X191.592 Y108.246 F30000
G1 E.8 F1800
G1 F7200
G1 X180.996 Y118.842 E.87523
G1 E-.8 F1800
G1 X180.996 Y119.657 F30000
G1 E.8 F1800
G1 F7200
G1 X192.407 Y108.246 E.94256
G1 E-.8 F1800
G1 X193.223 Y108.246 F30000
G1 E.8 F1800
G1 F7200
G1 X180.996 Y120.473 E1.00988
G1 E-.8 F1800
G1 X180.996 Y121.288 F30000
G1 E.8 F1800
G1 F7200
G1 X194.038 Y108.246 E1.07721
G1 E-.8 F1800
G1 X194.853 Y108.246 F30000
G1 E.8 F1800
G1 F7200
G1 X180.996 Y122.103 E1.14454
G1 E-.8 F1800
G1 X180.996 Y122.918 F30000
G1 E.8 F1800
G1 F7200
G1 X195.668 Y108.246 E1.21186
G1 E-.8 F1800
G1 X196.483 Y108.246 F30000
G1 E.8 F1800
G1 F7200
G1 X180.996 Y123.733 E1.27919
G1 E-.8 F1800
G1 X180.996 Y124.548 F30000
G1 E.8 F1800
G1 F7200
G1 X197.298 Y108.246 E1.34651
G1 E-.8 F1800
G1 X198.113 Y108.246 F30000
G1 E.8 F1800
G1 F7200
G1 X180.996 Y125.363 E1.41384
G1 E-.8 F1800
G1 X180.996 Y126.178 F30000
G1 E.8 F1800
G1 F7200
G1 X198.928 Y108.246 E1.48116
M73 P63 R2
G1 E-.8 F1800
G1 X199.743 Y108.246 F30000
G1 E.8 F1800
G1 F7200
G1 X180.996 Y126.993 E1.54849
G1 E-.8 F1800
G1 X180.996 Y127.808 F30000
G1 E.8 F1800
G1 F7200
G1 X200.558 Y108.246 E1.61582
G1 E-.8 F1800
G1 X201.373 Y108.246 F30000
G1 E.8 F1800
G1 F7200
G1 X180.996 Y128.623 E1.68314
G1 E-.8 F1800
G1 X180.996 Y129.438 F30000
G1 E.8 F1800
G1 F7200
G1 X202.188 Y108.246 E1.75047
G1 E-.8 F1800
G1 X203.004 Y108.246 F30000
G1 E.8 F1800
G1 F7200
G1 X180.996 Y130.254 E1.81779
G1 E-.8 F1800
G1 X180.996 Y131.069 F30000
G1 E.8 F1800
G1 F7200
G1 X203.004 Y109.061 E1.8178
G1 E-.8 F1800
G1 X203.004 Y109.876 F30000
